<?xml version="1.0" encoding="UTF-8"?>
<map version="1.10" tiledversion="1.12.2-2-geb83ddb9" orientation="orthogonal" renderorder="right-down" width="80" height="50" tilewidth="16" tileheight="16" infinite="0" nextlayerid="5" nextobjectid="19">
 <tileset firstgid="1" source="TilesetJour.tsx"/>
 <tileset firstgid="257" source="ObjetEtObstacles.tsx"/>
 <tileset firstgid="513" source="ObjetsEtObstaclesJour.tsx"/>
 <layer id="1" name="Calque de Tuiles 1" width="80" height="50">
  <data encoding="csv">
194,194,194,194,194,194,194,194,194,194,194,194,194,194,194,194,194,216,164,179,165,161,147,165,145,177,178,146,177,161,181,147,163,166,149,148,181,178,164,180,166,180,149,164,180,179,149,178,147,149,147,164,149,145,149,179,149,147,181,166,166,166,145,149,148,164,177,148,162,163,164,180,145,161,215,194,194,194,194,194,
194,194,194,194,194,194,194,194,194,194,194,194,194,194,194,194,194,216,145,179,166,166,163,147,179,177,161,165,161,149,161,179,146,181,181,178,166,148,177,147,178,164,181,179,181,180,181,161,178,145,178,180,161,147,165,149,145,177,164,161,146,163,147,146,147,178,146,163,145,161,149,180,149,146,153,194,194,194,194,194,
194,194,196,194,194,194,194,195,194,196,194,194,194,196,194,151,152,151,147,163,166,181,145,145,165,161,164,180,148,164,177,145,161,181,149,177,180,178,148,147,161,165,164,145,180,162,165,180,145,148,180,162,178,178,177,166,148,147,165,180,148,179,163,149,148,180,166,178,161,165,148,145,166,177,147,153,194,194,194,194,
194,194,194,194,194,194,194,194,194,194,194,196,194,194,151,235,145,145,145,145,178,147,149,180,177,149,179,163,180,145,166,165,147,164,149,179,185,183,162,178,146,177,177,177,162,164,162,166,165,161,163,163,165,161,179,146,177,166,147,180,181,164,181,145,161,161,165,164,178,146,180,149,166,145,146,145,153,194,194,194,
194,194,194,195,194,194,196,194,195,194,194,194,218,151,235,161,145,145,147,165,149,149,165,178,166,179,177,162,165,165,166,181,148,149,145,185,194,194,183,163,149,177,177,162,166,181,180,178,181,161,166,181,181,161,166,165,178,146,161,164,148,149,166,177,166,166,164,178,149,145,166,181,181,180,163,162,161,153,193,193,
194,194,194,195,194,194,194,194,194,194,194,151,235,235,181,178,178,163,162,179,161,181,148,164,179,177,162,161,180,179,148,149,179,181,185,194,194,194,194,201,202,183,163,166,166,165,166,179,161,163,166,179,166,166,180,162,161,163,181,178,177,178,164,147,181,163,178,177,177,161,179,149,181,163,163,164,166,147,153,218,
194,194,195,194,194,194,194,194,194,218,151,235,164,180,162,181,166,179,164,178,178,166,180,146,181,180,164,164,181,162,147,148,163,147,153,194,194,194,2,2,2,151,179,166,166,177,178,166,161,177,162,179,166,179,161,165,165,164,180,164,148,148,178,179,149,165,165,148,148,180,164,165,179,165,180,165,181,145,162,166,
194,194,194,194,196,194,194,194,151,235,161,145,178,178,147,165,179,162,179,164,181,163,166,180,147,177,164,179,147,149,179,162,149,166,215,194,194,196,2,2,2,167,161,166,166,166,179,166,166,178,178,161,163,185,202,202,202,202,183,164,164,145,147,161,145,164,177,148,148,181,149,180,147,165,162,149,162,185,202,202,
2,2,2,194,194,194,194,194,183,235,178,164,179,164,149,161,165,149,178,161,178,165,146,147,179,161,148,179,181,179,181,166,161,146,215,194,194,196,2,2,2,216,154,155,166,166,161,166,166,166,162,163,181,215,193,193,193,193,200,165,162,178,178,161,161,181,146,147,166,149,180,162,147,149,149,164,185,193,194,194,
2,2,2,194,194,194,194,193,216,145,164,165,177,148,166,181,181,145,178,179,166,166,181,145,166,166,178,181,179,162,178,180,166,181,215,194,194,194,194,195,194,167,170,171,166,166,166,177,166,162,163,180,181,231,193,194,194,193,216,180,165,166,177,181,147,147,162,145,180,164,177,146,181,181,163,185,193,196,194,193,
2,2,2,194,194,151,153,218,151,179,165,161,146,148,164,165,147,166,162,164,166,166,185,201,203,201,147,165,165,178,145,148,178,162,153,194,194,194,194,194,194,167,146,177,162,162,164,165,162,162,162,179,177,231,193,194,194,193,216,180,181,166,166,181,149,146,149,145,179,163,149,145,148,145,185,193,193,194,194,194,
194,194,194,194,193,183,235,161,178,177,149,181,185,201,202,201,202,201,201,201,202,201,193,194,194,151,161,148,148,148,145,164,164,146,148,153,218,218,218,218,151,180,163,178,165,161,147,166,164,162,162,163,179,153,193,193,193,193,232,161,177,166,166,166,2,2,2,162,147,161,185,202,202,185,193,194,195,193,194,196,
194,194,194,151,153,151,146,163,147,162,162,149,199,194,194,194,193,193,194,193,193,193,194,194,194,183,162,179,165,162,161,148,181,163,177,162,147,178,177,145,147,147,146,161,145,148,161,178,2,2,2,162,166,177,153,217,193,193,151,164,161,166,166,166,2,2,2,162,179,146,215,193,194,194,194,194,195,195,194,194,
194,194,151,235,146,164,163,149,177,179,164,179,215,194,193,194,194,194,193,194,194,2,2,2,194,194,194,166,177,178,163,146,149,165,180,149,162,179,179,179,165,147,146,166,177,166,179,178,2,2,2,166,164,162,179,181,153,151,166,166,180,166,166,166,2,2,2,166,202,185,193,194,193,193,194,193,193,193,194,193,
218,151,235,146,163,149,178,177,180,166,165,163,215,194,194,193,193,193,193,194,194,2,2,2,193,193,194,183,161,161,181,162,162,162,161,145,166,178,149,181,148,165,161,179,165,148,164,145,2,2,2,177,181,178,180,180,177,161,178,163,161,166,166,166,166,166,166,185,193,193,193,196,196,194,193,193,195,194,194,193,
235,235,147,163,181,149,165,162,148,164,165,177,215,193,194,193,193,194,194,193,194,2,2,2,193,193,194,200,145,161,177,162,162,162,161,154,155,179,178,148,177,147,181,180,164,163,161,147,161,149,146,180,164,161,165,179,165,165,180,180,179,166,166,166,166,166,185,193,193,195,196,193,194,194,193,194,193,194,195,195,
164,177,166,162,146,180,165,177,145,180,180,178,231,194,194,193,193,195,193,194,194,195,193,194,193,193,194,232,165,180,177,162,162,162,179,170,171,147,165,179,162,165,161,149,179,165,177,165,149,179,163,148,146,165,177,177,165,177,180,166,177,166,166,166,166,185,193,193,195,195,193,196,194,193,194,194,194,193,194,195,
149,161,178,147,180,180,181,164,163,179,165,163,153,194,194,193,194,194,193,193,193,195,196,194,195,193,194,151,165,162,177,146,147,166,146,181,166,145,165,161,179,161,165,179,162,180,178,165,147,146,148,145,146,164,181,149,177,164,177,166,163,165,166,166,166,199,193,194,193,193,196,193,195,193,193,194,194,194,194,193,
179,165,165,181,177,162,148,149,162,178,180,181,177,153,193,193,194,193,194,193,194,196,195,193,194,194,193,183,147,165,166,147,166,178,146,85,88,97,97,97,97,97,97,97,97,85,88,178,180,177,163,181,177,181,177,148,156,157,158,179,181,165,166,166,166,231,193,195,193,195,196,194,194,195,195,193,193,193,194,193,
145,149,146,178,179,166,148,164,178,163,166,179,145,185,193,193,193,194,194,194,193,194,194,193,194,194,194,194,183,163,164,165,165,180,146,133,136,17,17,17,17,17,17,17,17,133,136,161,162,177,181,145,163,145,166,179,172,173,174,177,177,161,166,166,166,231,193,193,194,194,194,195,194,194,194,193,194,193,193,193,
180,177,148,181,180,148,162,149,162,179,148,163,185,194,194,194,194,194,194,193,194,193,193,194,194,194,194,194,151,163,180,148,179,161,146,98,17,17,17,17,17,17,17,17,17,17,99,165,163,178,145,166,149,161,163,148,188,189,190,179,164,179,166,166,166,231,193,194,194,193,193,194,193,194,194,196,193,193,194,196,
178,181,180,162,145,148,145,148,148,165,147,185,194,194,193,193,193,193,193,194,194,194,193,193,194,194,194,194,183,165,178,181,181,177,146,98,17,17,17,17,17,17,17,17,17,17,99,178,161,179,145,145,164,145,169,151,151,180,165,165,181,161,177,166,166,199,193,194,193,194,194,193,194,193,193,195,194,196,193,193,
181,180,146,164,146,162,162,178,147,163,185,194,193,194,193,194,194,193,194,193,194,193,193,193,194,194,194,193,194,183,184,202,201,183,146,98,17,17,17,85,86,87,88,17,17,17,99,166,148,178,163,165,181,177,177,147,162,181,177,181,162,177,163,166,166,215,193,193,193,194,193,193,194,193,193,193,194,194,193,193,
149,177,163,147,166,149,179,149,165,180,199,194,194,194,193,193,194,194,194,194,193,193,194,195,193,193,194,194,194,193,194,194,193,193,183,98,17,17,17,101,102,103,104,17,17,17,99,179,179,148,166,177,164,178,180,180,177,163,177,161,181,180,164,166,166,199,193,193,193,193,193,193,196,195,194,195,194,193,194,196,
149,149,162,178,149,147,148,161,164,178,215,194,193,194,194,196,196,193,194,193,195,193,194,193,193,193,194,194,194,194,193,193,194,194,193,98,17,17,17,117,118,119,120,17,17,17,99,180,162,162,163,179,181,146,162,162,146,162,180,177,163,178,181,179,166,215,195,194,193,194,195,193,194,194,195,194,194,193,194,194,
165,161,178,164,161,162,181,163,165,161,215,193,193,194,193,194,195,194,194,193,196,193,193,193,193,193,194,193,196,194,194,194,193,193,194,98,17,17,17,133,134,135,136,17,17,17,99,149,163,163,148,178,180,163,162,162,179,178,162,178,163,161,181,235,166,215,194,193,193,193,194,194,195,193,195,194,196,193,193,193,
181,164,164,165,178,181,163,179,163,146,215,193,194,2,2,2,193,193,194,193,193,194,194,194,193,195,194,194,193,196,194,193,193,193,193,98,17,17,17,17,17,17,17,17,17,17,99,147,161,177,146,145,177,146,163,178,163,163,180,166,178,156,157,158,235,215,2,2,2,193,193,193,194,193,195,195,193,194,193,195,
181,164,147,181,164,148,146,181,180,162,153,193,193,2,2,2,194,194,194,194,193,194,194,193,193,194,194,193,194,194,193,193,193,194,194,98,17,17,17,17,17,17,17,17,17,17,99,148,166,149,161,166,162,165,177,180,181,164,178,166,164,172,173,174,185,194,2,2,2,194,194,193,194,194,193,193,195,193,193,194,
161,181,166,145,147,162,145,149,166,148,179,153,194,2,2,2,194,194,194,194,194,194,193,193,195,196,194,193,194,193,194,193,193,151,153,85,88,17,17,17,17,17,17,17,17,85,88,163,179,161,165,148,179,181,161,166,163,179,180,166,163,188,189,185,194,193,2,2,2,193,193,193,193,194,193,194,194,194,194,194,
146,146,164,148,177,161,163,162,148,165,181,149,153,219,217,218,219,193,194,194,193,194,194,194,196,193,194,193,193,194,194,194,151,177,146,133,136,113,113,113,113,113,113,113,113,133,136,163,163,177,166,149,166,149,166,146,161,146,177,166,185,203,203,193,194,193,193,193,193,194,193,194,193,194,194,194,194,193,193,193,
179,161,164,162,146,166,179,166,147,147,178,149,166,161,177,164,165,153,218,194,193,193,194,193,193,194,193,193,194,152,152,152,165,163,147,147,179,163,163,163,163,163,163,163,166,166,166,163,163,177,148,145,180,148,146,161,164,164,181,166,215,194,194,194,193,193,193,193,194,195,194,194,194,193,194,193,193,193,194,193,
181,145,181,148,165,146,177,166,146,177,145,180,163,166,163,179,178,161,165,153,218,218,218,218,218,218,218,218,151,164,164,146,179,149,178,161,162,165,165,166,165,165,141,163,163,163,163,163,177,165,180,149,148,164,145,162,181,164,164,166,215,194,194,194,193,193,194,194,194,194,194,193,196,194,193,193,193,194,193,194,
146,148,146,161,166,149,177,166,166,146,180,145,164,145,181,166,181,181,161,162,148,146,177,161,161,179,162,146,179,177,2,2,2,180,166,146,180,165,161,149,166,165,165,141,149,166,164,147,180,145,180,177,178,162,178,147,164,164,164,166,153,193,194,193,194,193,194,193,194,193,194,194,193,193,193,193,194,194,194,194,
148,179,178,162,162,178,145,161,161,145,148,161,164,161,145,149,145,165,146,181,181,163,180,164,163,149,145,154,155,166,2,2,2,147,179,163,146,146,163,179,165,178,165,165,141,161,146,166,179,180,181,2,2,2,166,145,185,202,183,184,185,193,194,194,193,194,195,194,194,193,194,194,195,194,193,195,194,194,193,194,
164,166,163,163,148,179,180,162,163,181,166,165,166,164,166,162,165,164,164,180,145,178,164,147,163,178,163,170,171,163,2,2,2,149,178,165,177,178,146,161,147,145,166,165,141,177,146,148,181,161,166,2,2,2,163,185,227,193,193,194,194,193,194,194,194,194,194,194,193,193,193,193,194,194,194,194,194,193,193,194,
162,180,164,164,166,165,162,164,177,165,149,179,145,145,164,161,145,149,161,161,180,145,178,146,177,162,146,162,164,162,177,163,164,164,166,161,166,165,165,165,165,165,165,146,162,162,162,161,166,166,166,2,2,2,185,193,193,193,194,193,193,194,193,194,194,194,193,194,193,196,194,194,196,194,194,196,194,193,194,193,
147,148,147,145,163,147,146,148,147,181,164,178,145,165,162,166,148,177,179,166,177,163,179,179,166,149,181,163,148,147,149,162,147,149,161,163,145,146,165,145,145,177,179,181,166,184,183,165,166,166,166,166,166,185,193,193,194,193,193,194,193,194,193,194,193,194,193,194,194,193,193,194,193,194,194,194,193,193,193,193,
180,166,179,179,161,163,146,149,163,148,180,164,163,163,162,149,181,181,166,180,149,145,179,164,177,161,162,145,164,166,179,145,161,166,181,181,166,179,162,164,165,177,163,179,185,227,200,166,166,166,166,166,185,194,193,193,194,194,193,194,193,196,194,193,194,195,194,193,237,194,193,194,193,194,194,194,194,194,194,194,
180,146,146,181,166,179,162,181,178,149,149,161,178,178,178,148,148,145,147,180,163,162,166,166,149,179,147,162,162,162,177,162,162,179,148,166,180,149,162,178,179,181,163,165,164,152,233,166,166,166,166,166,215,194,193,194,194,194,193,193,193,194,193,194,194,193,194,222,151,152,152,152,153,195,193,193,194,194,194,194,
149,148,148,161,162,161,181,162,181,178,145,180,165,178,178,166,148,178,149,146,166,149,164,165,166,179,161,166,163,166,163,165,165,161,165,163,164,161,146,147,148,179,181,161,163,177,166,166,166,166,166,166,215,193,193,193,193,194,194,194,193,193,194,194,193,194,194,151,145,156,157,158,169,194,193,194,193,193,193,194,
161,177,179,180,179,146,147,162,166,147,163,179,180,162,146,181,146,145,146,180,181,145,162,149,148,165,179,149,162,148,145,166,180,146,166,180,165,165,181,164,162,163,161,146,179,166,166,166,166,166,165,181,153,194,194,194,194,194,194,193,193,194,193,194,193,193,193,167,145,172,173,174,169,194,193,194,194,193,194,194,
163,161,164,177,147,146,180,147,163,166,165,181,147,149,185,201,183,145,161,181,147,164,181,178,164,149,166,145,177,148,148,161,179,178,161,166,149,146,147,165,178,164,162,166,163,166,166,184,185,202,202,183,185,193,193,194,194,194,196,193,194,194,194,193,193,193,194,183,145,188,189,190,169,193,193,193,194,196,194,194,
178,162,179,149,164,161,163,177,163,163,147,145,164,185,194,194,194,183,185,201,202,202,202,183,181,148,163,164,163,145,178,163,164,163,165,145,146,149,162,145,149,181,178,181,181,165,165,153,199,194,193,194,194,194,194,193,193,194,194,194,193,194,193,195,194,193,193,193,183,184,184,184,185,193,194,193,194,194,193,194,
149,181,178,149,146,147,180,181,148,162,162,161,185,194,194,194,194,194,194,194,194,194,194,216,177,181,162,147,179,147,148,165,181,181,166,154,155,145,162,166,166,162,163,162,162,161,166,166,199,193,194,193,194,193,193,193,194,194,194,194,193,193,194,193,193,193,194,194,205,205,205,205,193,194,194,193,194,194,194,193,
178,147,146,165,166,177,2,2,2,162,166,149,215,194,194,194,195,194,194,194,196,194,194,216,164,177,180,164,179,147,166,162,147,147,148,170,171,145,165,180,149,181,145,148,161,179,161,178,153,152,153,193,194,193,194,193,193,193,193,194,194,194,194,194,193,193,193,194,194,194,194,193,193,193,194,193,193,193,193,194,
148,180,180,179,164,181,2,2,2,179,180,163,215,194,194,195,194,194,195,194,196,194,194,151,177,181,177,178,177,145,145,148,163,180,179,164,163,163,164,162,180,163,149,147,146,162,177,179,166,181,169,193,194,193,193,194,193,193,194,193,194,194,193,193,193,194,194,193,193,194,193,193,193,194,193,194,194,194,193,194,
162,179,149,164,178,177,2,2,2,166,181,145,215,194,194,194,194,194,194,194,194,194,151,166,161,166,149,161,164,164,178,146,147,162,148,164,161,162,163,146,147,163,162,163,146,145,163,148,178,184,185,193,193,193,193,193,193,194,193,194,194,194,193,193,194,193,193,194,193,194,194,194,194,193,193,194,193,193,193,194,
177,180,148,145,181,179,165,163,163,161,163,149,215,194,194,194,194,194,194,194,194,151,163,166,178,145,164,164,148,148,147,181,148,181,181,149,166,181,178,179,164,181,148,145,177,165,179,162,185,194,193,194,194,194,193,194,194,193,194,194,194,193,193,193,193,194,193,194,193,193,193,194,194,193,194,194,194,194,193,194,
165,166,148,179,179,165,161,166,178,181,177,163,153,218,218,194,151,153,218,218,151,181,178,180,161,178,148,177,179,147,147,178,181,164,162,161,164,166,165,146,164,145,148,162,148,146,177,147,199,194,194,194,193,194,194,193,194,193,194,193,194,193,194,194,194,194,193,193,194,193,194,193,193,194,194,193,193,193,193,193,
149,178,162,162,180,166,162,162,147,147,179,177,179,148,181,152,149,179,161,161,177,178,177,179,180,147,165,177,148,149,161,164,163,146,179,148,180,162,177,147,164,178,162,148,163,166,147,146,199,193,193,194,194,194,194,194,194,193,193,193,194,194,194,193,193,193,194,193,193,193,194,193,194,194,193,193,193,194,193,193
</data>
 </layer>
 <layer id="4" name="Objets et Obstacles" width="80" height="50">
  <data encoding="csv">
0,0,0,0,0,0,0,0,0,0,0,0,0,0,0,0,0,0,0,0,0,0,0,0,0,0,0,0,0,0,0,0,0,0,0,0,0,0,0,0,0,0,0,0,0,0,0,0,0,0,0,0,0,0,0,0,0,0,0,0,0,0,0,0,0,0,0,0,0,0,0,0,0,0,0,0,0,0,0,0,
0,0,0,0,0,0,0,0,0,0,0,0,0,0,0,0,0,0,0,0,0,0,0,0,0,0,0,0,0,0,0,0,0,0,0,0,0,0,0,0,0,0,0,0,0,0,0,0,0,0,0,0,0,0,0,0,0,0,0,0,0,0,0,0,0,0,0,0,0,0,0,0,0,0,0,0,0,0,0,0,
0,0,0,0,0,0,0,0,0,0,0,0,0,0,0,0,0,0,0,0,0,0,0,0,0,0,0,0,0,0,0,0,0,0,0,0,0,0,0,0,0,0,0,0,0,0,0,0,0,0,0,0,0,0,0,0,0,0,0,0,0,0,0,0,0,0,0,0,0,0,0,0,0,0,0,0,0,0,0,0,
0,0,0,0,0,0,0,0,0,0,0,0,0,0,0,0,0,0,0,0,0,0,0,0,0,0,0,0,0,0,0,0,0,0,0,0,0,0,0,0,0,0,0,0,0,0,0,0,0,0,0,0,0,0,0,0,0,0,0,0,0,0,0,0,0,0,0,0,0,0,0,0,0,0,0,0,0,0,0,0,
0,0,0,0,0,0,0,0,0,0,0,0,0,0,0,0,0,0,0,0,0,0,0,0,0,0,0,0,0,0,0,0,0,0,0,0,0,0,0,0,0,0,0,0,0,0,0,0,0,0,0,0,0,0,0,0,0,0,0,0,0,0,0,0,0,0,0,0,0,0,0,0,0,0,0,0,0,0,0,0,
0,0,0,0,0,0,0,0,0,0,0,0,0,0,0,0,0,0,0,0,0,0,0,0,0,0,0,0,0,0,0,0,0,0,0,0,0,0,0,0,0,0,0,0,0,0,0,0,0,0,0,0,0,0,0,0,0,0,0,0,0,0,0,0,0,0,0,0,0,0,0,0,0,0,0,0,0,0,0,0,
0,0,0,0,0,0,0,0,0,0,0,0,0,0,0,0,0,0,0,0,0,0,0,0,0,0,0,0,0,0,0,0,0,0,0,0,0,0,0,0,0,0,0,0,0,0,0,0,0,0,0,0,0,0,0,0,0,0,0,0,0,0,0,0,0,0,0,0,0,0,0,0,0,0,0,0,0,0,0,0,
0,0,0,0,0,0,0,0,0,0,0,0,0,0,0,0,0,0,0,0,0,0,0,0,0,0,0,0,0,0,0,0,0,0,0,0,0,0,0,0,0,0,0,0,0,0,0,0,0,0,0,0,0,0,0,0,0,0,0,0,0,0,0,0,0,0,0,0,0,0,0,0,0,0,0,0,0,0,0,0,
0,0,0,0,0,0,0,0,0,0,0,0,0,0,0,0,0,0,0,0,0,0,0,0,0,0,0,0,0,0,0,0,0,0,0,0,0,0,0,0,0,0,0,0,0,0,0,0,0,0,0,0,0,0,0,0,0,0,0,0,0,0,0,0,0,0,0,0,0,0,0,0,0,0,0,0,0,0,0,0,
0,0,0,0,0,0,0,0,0,0,0,0,0,0,0,0,0,0,0,0,0,0,0,0,0,0,0,0,0,0,0,0,0,0,0,0,0,0,0,0,0,0,0,0,0,0,0,0,0,0,0,0,0,0,0,0,0,0,0,0,0,0,0,0,0,0,0,0,0,0,0,0,0,0,0,0,0,0,0,0,
0,0,0,0,0,0,0,0,0,0,0,0,0,0,0,0,0,0,0,0,0,0,0,0,0,0,0,0,0,0,0,0,0,0,0,0,0,0,0,0,0,0,0,0,0,0,0,0,0,0,0,0,0,0,0,0,0,0,0,0,0,0,0,0,0,0,0,0,0,0,0,0,0,0,0,0,0,0,0,0,
0,0,0,0,0,0,0,0,0,0,0,0,0,0,0,0,0,0,0,0,0,0,0,0,0,0,0,0,0,0,0,0,0,0,0,0,0,0,0,0,0,0,0,0,0,0,0,0,0,0,0,0,0,0,0,0,0,0,0,0,0,0,0,0,0,0,0,0,0,0,0,0,0,0,0,0,0,0,0,0,
0,0,0,0,0,0,0,0,0,0,0,0,0,0,0,0,0,0,0,0,0,0,0,0,0,0,0,0,0,0,0,0,0,0,0,0,0,0,0,0,0,0,0,0,0,0,0,0,0,0,0,0,0,0,0,0,0,0,0,0,0,0,0,0,0,0,0,0,0,0,0,0,0,0,0,0,0,0,0,0,
0,0,0,0,0,0,0,0,0,0,0,0,0,0,0,0,0,0,0,0,0,0,0,0,0,0,0,0,0,0,0,0,0,0,0,0,0,0,0,0,0,0,0,0,0,0,0,0,0,0,0,0,0,0,0,0,0,0,0,0,0,0,0,0,0,0,0,0,0,0,0,0,0,0,0,0,0,0,0,0,
0,0,0,0,0,0,0,0,0,0,0,0,0,0,0,0,0,0,0,0,0,0,0,0,0,0,0,0,0,0,0,0,0,0,0,0,0,0,0,0,0,0,0,0,0,0,0,0,0,0,0,0,0,0,0,0,0,0,0,0,0,0,0,0,0,0,0,0,0,0,0,0,0,0,0,0,0,0,0,0,
0,0,0,0,0,0,0,0,0,0,0,0,0,0,0,0,0,0,0,0,0,0,0,0,0,0,0,0,0,0,0,0,0,0,0,0,0,0,0,0,0,0,0,0,0,0,0,0,0,0,0,0,0,0,0,0,0,0,0,0,0,0,0,0,0,0,0,0,0,0,0,0,0,0,0,0,0,0,0,0,
0,0,0,0,0,0,0,0,0,0,0,0,0,0,0,0,0,0,0,0,0,0,0,0,0,0,0,0,0,0,0,0,0,0,0,513,514,0,0,0,0,0,0,0,0,513,514,0,0,0,0,0,0,0,0,0,0,0,0,0,0,0,0,0,0,0,0,0,0,0,0,0,0,0,0,0,0,0,0,0,
0,0,0,0,0,0,0,0,0,0,0,0,0,0,0,0,0,0,0,0,0,0,0,0,0,0,0,0,0,0,0,0,0,0,0,529,530,0,0,0,0,0,0,0,0,529,530,0,0,0,0,0,0,0,0,0,0,0,0,0,0,0,0,0,0,0,0,0,0,0,0,0,0,0,0,0,0,0,0,0,
0,0,0,0,0,0,0,0,0,0,0,0,0,0,0,0,0,0,0,0,0,0,0,0,0,0,0,0,0,0,0,0,0,0,0,545,546,0,0,0,0,0,0,0,0,545,546,0,0,0,547,548,0,0,0,0,0,0,0,0,0,0,0,0,0,0,0,0,0,0,0,0,0,0,0,0,0,0,0,0,
0,0,0,0,0,0,0,0,0,0,0,0,0,0,0,0,0,0,0,0,0,0,0,0,0,0,0,0,0,0,0,0,0,0,0,0,0,0,0,0,0,0,0,0,0,0,0,0,0,0,0,0,0,0,0,0,0,0,0,0,0,0,0,0,0,0,0,0,0,0,0,0,0,0,0,0,0,0,0,0,
0,0,0,0,0,0,0,0,0,0,0,0,0,0,0,0,0,0,0,0,0,0,0,0,0,0,0,0,0,0,0,0,0,0,0,0,0,0,0,0,0,0,0,0,0,0,0,0,0,0,0,0,0,0,0,0,0,0,0,0,0,0,0,0,0,0,0,0,0,0,0,0,0,0,0,0,0,0,0,0,
0,0,0,0,0,0,0,0,0,0,0,0,0,0,0,0,0,0,0,0,0,0,0,0,0,0,0,0,0,0,0,0,0,0,0,0,0,0,0,0,0,0,0,0,0,0,0,0,0,0,0,0,0,0,0,0,0,0,0,0,0,0,0,0,0,0,0,0,0,0,0,0,0,0,0,0,0,0,0,0,
0,0,0,0,0,0,0,0,0,0,0,0,0,0,0,0,0,0,0,0,0,0,0,0,0,0,0,0,0,0,0,0,0,0,0,0,0,0,0,0,0,0,0,0,0,0,0,0,0,0,0,0,0,0,0,0,0,0,0,0,0,0,0,0,0,0,0,0,0,0,0,0,0,0,0,0,0,0,0,0,
0,0,0,0,0,0,0,0,0,0,0,0,0,0,0,0,0,0,0,0,0,0,0,0,0,0,0,0,0,0,0,0,0,0,0,0,0,0,0,0,0,0,0,0,0,0,0,0,0,0,547,548,0,0,0,0,0,0,0,0,0,0,0,0,0,0,0,0,0,0,0,0,0,0,0,0,0,0,0,0,
0,0,0,0,0,0,0,0,0,0,0,0,0,0,0,0,0,0,0,0,0,0,0,0,0,0,0,0,0,0,0,0,0,0,0,0,0,0,0,0,0,0,0,0,0,0,0,0,0,0,0,0,0,0,0,0,0,0,0,0,0,0,0,0,0,0,0,0,0,0,0,0,0,0,0,0,0,0,0,0,
0,0,0,0,0,0,0,0,0,0,0,0,0,0,0,0,0,0,0,0,0,0,0,0,0,0,0,0,0,0,0,0,0,0,0,0,0,0,0,0,0,0,0,0,0,0,0,0,0,0,0,0,0,0,0,0,0,0,0,0,0,0,0,0,0,0,0,0,0,0,0,0,0,0,0,0,0,0,0,0,
0,0,0,0,0,0,0,0,0,0,0,0,0,0,0,0,0,0,0,0,0,0,0,0,0,0,0,0,0,0,0,0,0,0,0,513,514,0,0,0,0,0,0,0,0,513,514,0,0,0,0,0,0,0,0,0,0,0,0,0,0,0,0,0,0,0,0,0,0,0,0,0,0,0,0,0,0,0,0,0,
0,0,0,0,0,0,0,0,0,0,0,0,0,0,0,0,0,0,0,0,0,0,0,0,0,0,0,0,0,0,0,0,0,0,0,529,530,0,0,0,0,0,0,0,0,529,530,0,0,0,0,0,0,0,0,0,0,0,0,0,0,0,0,0,0,0,0,0,0,0,0,0,0,0,0,0,0,0,0,0,
0,0,0,0,0,0,0,0,0,0,0,0,0,0,0,0,0,0,0,0,0,0,0,0,0,0,0,0,0,0,0,0,0,0,0,545,546,0,0,0,0,0,0,0,0,545,546,0,0,0,0,0,0,0,0,0,0,0,0,0,0,0,0,0,0,0,0,0,0,0,0,0,0,0,0,0,0,0,0,0,
0,0,0,0,0,0,0,0,0,0,0,0,0,0,0,0,0,0,0,0,0,0,0,0,0,0,0,0,0,0,0,0,0,0,0,0,0,0,0,0,0,0,0,0,0,0,0,0,0,0,0,0,0,0,0,0,0,0,0,0,0,0,0,0,0,0,0,0,0,0,0,0,0,0,0,0,0,0,0,0,
0,0,0,0,0,0,0,0,0,0,0,0,0,0,0,0,0,0,0,0,0,0,0,0,0,0,0,0,0,0,0,0,0,0,0,0,0,0,0,0,0,0,0,0,0,0,0,0,0,0,0,0,0,0,0,0,0,0,0,0,0,0,0,0,0,0,0,0,0,0,0,0,0,0,0,0,0,0,0,0,
0,0,0,0,0,0,0,0,0,0,0,0,0,0,0,0,0,0,0,0,0,0,0,0,0,0,0,0,0,0,0,0,0,0,0,0,0,0,0,0,0,0,0,0,0,0,0,0,0,0,0,0,0,0,0,0,0,0,0,0,0,0,0,0,0,0,0,0,0,0,0,0,0,0,0,0,0,0,0,0,
0,0,0,0,0,0,0,0,0,0,0,0,0,0,0,0,0,0,0,0,0,0,0,0,0,0,0,0,0,0,0,0,0,0,0,0,0,0,0,0,0,0,0,0,0,0,0,0,0,0,0,0,0,0,0,0,0,0,0,0,0,0,0,0,0,0,0,0,0,0,0,0,0,0,0,0,0,0,0,0,
0,0,0,0,0,0,0,0,0,0,0,0,0,0,0,0,0,0,0,0,0,0,0,0,0,0,0,0,0,0,0,0,0,0,0,0,0,0,0,0,0,0,0,0,0,0,0,0,0,0,0,0,0,0,0,0,0,0,0,0,0,0,0,0,0,0,0,0,0,0,0,0,0,0,0,0,0,0,0,0,
0,0,0,0,0,0,0,0,0,0,0,0,0,0,0,0,0,0,0,0,0,0,0,0,0,0,0,0,0,0,0,0,0,0,0,0,0,0,0,0,0,0,0,0,0,0,0,0,0,0,0,0,0,0,0,0,0,0,0,0,0,0,0,0,0,0,0,0,0,0,0,0,0,0,0,0,0,0,0,0,
0,0,0,0,0,0,0,0,0,0,0,0,0,0,0,0,0,0,0,0,0,0,0,0,0,0,0,0,0,0,0,0,0,0,0,0,0,0,0,0,0,0,0,0,0,0,0,0,0,0,0,0,0,0,0,0,0,0,0,0,0,0,0,0,0,0,0,0,0,0,0,0,0,0,0,0,0,0,0,0,
0,0,0,0,0,0,0,0,0,0,0,0,0,0,0,0,0,0,0,0,0,0,0,0,0,0,0,0,0,0,0,0,0,0,0,0,0,0,0,0,0,0,0,0,0,0,0,0,0,0,0,0,0,0,0,0,0,0,0,0,0,0,0,0,0,0,0,0,0,0,0,0,0,0,0,0,0,0,0,0,
0,0,0,0,0,0,0,0,0,0,0,0,0,0,0,0,0,0,0,0,0,0,0,0,0,0,0,0,0,0,0,0,0,0,0,0,0,0,0,0,0,0,0,0,0,0,0,0,0,0,0,0,0,0,0,0,0,0,0,0,0,0,0,0,0,0,0,0,0,0,0,0,0,0,0,0,0,0,0,0,
0,0,0,0,0,0,0,0,0,0,0,0,0,0,0,0,0,0,0,0,0,0,0,0,0,0,0,0,0,0,0,0,0,0,0,0,0,0,0,0,0,0,0,0,0,0,0,0,0,0,0,0,0,0,0,0,0,0,0,0,0,0,0,0,0,0,0,0,0,0,0,0,0,0,0,0,0,0,0,0,
0,0,0,0,0,0,0,0,0,0,0,0,0,0,0,0,0,0,0,0,0,0,0,0,0,0,0,0,0,0,0,0,0,0,0,0,0,0,0,0,0,0,0,0,0,0,0,0,0,0,0,0,0,0,0,0,0,0,0,0,0,0,0,0,0,0,0,0,0,0,0,0,0,0,0,0,0,0,0,0,
0,0,0,0,0,0,0,0,0,0,0,0,0,0,0,0,0,0,0,0,0,0,0,0,0,0,0,0,0,0,0,0,0,0,0,0,0,0,0,0,0,0,0,0,0,0,0,0,0,0,0,0,0,0,0,0,0,0,0,0,0,0,0,0,0,0,0,0,0,0,0,0,0,0,0,0,0,0,0,0,
0,0,0,0,0,0,0,0,0,0,0,0,0,0,0,0,0,0,0,0,0,0,0,0,0,0,0,0,0,0,0,0,0,0,0,0,0,0,0,0,0,0,0,0,0,0,0,0,0,0,0,0,0,0,0,0,0,0,0,0,0,0,0,0,0,0,0,0,0,0,0,0,0,0,0,0,0,0,0,0,
0,0,0,0,0,0,0,0,0,0,0,0,0,0,0,0,0,0,0,0,0,0,0,0,0,0,0,0,0,0,0,0,0,0,0,0,0,0,0,0,0,0,0,0,0,0,0,0,0,0,0,0,0,0,0,0,0,0,0,0,0,0,0,0,0,0,0,0,0,0,0,0,0,0,0,0,0,0,0,0,
0,0,0,0,0,0,0,0,0,0,0,0,0,0,0,0,0,0,0,0,0,0,0,0,0,0,0,0,0,0,0,0,0,0,0,0,0,0,0,0,0,0,0,0,0,0,0,0,0,0,0,0,0,0,0,0,0,0,0,0,0,0,0,0,0,0,0,0,0,0,0,0,0,0,0,0,0,0,0,0,
0,0,0,0,0,0,0,0,0,0,0,0,0,0,0,0,0,0,0,0,0,0,0,0,0,0,0,0,0,0,0,0,0,0,0,0,0,0,0,0,0,0,0,0,0,0,0,0,0,0,0,0,0,0,0,0,0,0,0,0,0,0,0,0,0,0,0,0,0,0,0,0,0,0,0,0,0,0,0,0,
0,0,0,0,0,0,0,0,0,0,0,0,0,0,0,0,0,0,0,0,0,0,0,0,0,0,0,0,0,0,0,0,0,0,0,0,0,0,0,0,0,0,0,0,0,0,0,0,0,0,0,0,0,0,0,0,0,0,0,0,0,0,0,0,0,0,0,0,0,0,0,0,0,0,0,0,0,0,0,0,
0,0,0,0,0,0,0,0,0,0,0,0,0,0,0,0,0,0,0,0,0,0,0,0,0,0,0,0,0,0,0,0,0,0,0,0,0,0,0,0,0,0,0,0,0,0,0,0,0,0,0,0,0,0,0,0,0,0,0,0,0,0,0,0,0,0,0,0,0,0,0,0,0,0,0,0,0,0,0,0,
0,0,0,0,0,0,0,0,0,0,0,0,0,0,0,0,0,0,0,0,0,0,0,0,0,0,0,0,0,0,0,0,0,0,0,0,0,0,0,0,0,0,0,0,0,0,0,0,0,0,0,0,0,0,0,0,0,0,0,0,0,0,0,0,0,0,0,0,0,0,0,0,0,0,0,0,0,0,0,0,
0,0,0,0,0,0,0,0,0,0,0,0,0,0,0,0,0,0,0,0,0,0,0,0,0,0,0,0,0,0,0,0,0,0,0,0,0,0,0,0,0,0,0,0,0,0,0,0,0,0,0,0,0,0,0,0,0,0,0,0,0,0,0,0,0,0,0,0,0,0,0,0,0,0,0,0,0,0,0,0,
0,0,0,0,0,0,0,0,0,0,0,0,0,0,0,0,0,0,0,0,0,0,0,0,0,0,0,0,0,0,0,0,0,0,0,0,0,0,0,0,0,0,0,0,0,0,0,0,0,0,0,0,0,0,0,0,0,0,0,0,0,0,0,0,0,0,0,0,0,0,0,0,0,0,0,0,0,0,0,0
</data>
 </layer>
 <objectgroup id="2" name="BuildSlots">
  <object id="1" name="slot1" type="built_slot" x="336" y="208" width="47.875" height="48"/>
  <object id="2" name="slot2" type="built_slot" x="0.0909091" y="128.091" width="47.6364" height="48.1818"/>
  <object id="3" name="slot3" type="built_slot" x="207.909" y="416.121" width="47.7273" height="47.9091"/>
  <object id="4" name="slot6" type="built_slot" x="1056.25" y="416" width="47.5" height="47.875"/>
  <object id="5" name="slot5" type="built_slot" x="768.25" y="192.063" width="47.75" height="47.625"/>
  <object id="6" name="slot7" type="built_slot" x="1024.18" y="176.212" width="47.25" height="47.375"/>
  <object id="7" name="slot4" type="built_slot" x="608" y="96.1818" width="48" height="47.8182"/>
  <object id="14" name="slot8" type="built_slot" x="96" y="704" width="48" height="48"/>
  <object id="16" name="slot9" type="built_slot" x="480" y="512" width="48" height="48"/>
  <object id="17" name="slot10" type="built_slot" x="816" y="528" width="48" height="48"/>
  <object id="18" x="1025.33" y="385.333" width="2.66667"/>
 </objectgroup>
 <objectgroup id="3" name="VaisseauSlot">
  <object id="11" name="vaisseau" type="vaisseau_slot" x="624" y="352" width="64" height="64"/>
 </objectgroup>
</map>
