<?xml version="1.0" encoding="UTF-8"?>
<map version="1.10" tiledversion="1.12.2-2-geb83ddb9" orientation="orthogonal" renderorder="right-down" width="80" height="50" tilewidth="16" tileheight="16" infinite="0" nextlayerid="3" nextobjectid="12">
 <tileset firstgid="1" source="TilesetNuit.tsx"/>
 <tileset firstgid="257" source="ObjetEtObstacles.tsx"/>
 <tileset firstgid="549" source="ObjetEtObstacles.tsx"/>
 <layer id="1" name="Calque de Tuiles 1" width="100" height="70">
  <data encoding="csv">
179,179,179,165,178,164,180,146,179,165,148,162,164,177,146,145,177,163,145,185,201,201,201,183,149,145,180,178,148,177,165,177,148,179,177,165,178,178,148,161,147,148,146,164,146,163,148,161,162,179,163,181,178,145,163,163,146,145,147,163,165,178,147,180,178,177,147,162,164,181,161,147,164,163,179,180,164,181,177,180,163,162,181,165,185,194,194,194,194,194,194,194,194,194,194,194,194,194,194,194,
149,179,164,146,177,146,163,146,164,147,163,147,147,185,183,177,177,179,185,193,194,194,194,194,183,180,177,161,161,178,147,147,165,145,179,147,163,165,149,149,149,179,146,181,180,149,163,178,178,147,146,165,146,180,145,178,147,164,177,177,162,164,148,163,145,149,147,146,145,164,163,165,149,161,147,177,149,148,180,181,145,146,146,179,153,194,194,194,194,194,194,194,194,194,194,194,194,194,194,194,
164,181,165,181,177,177,185,202,202,202,202,183,185,194,194,201,183,185,194,194,194,193,193,193,194,183,161,149,180,179,164,181,178,178,148,180,178,145,177,181,165,147,147,165,179,178,181,180,179,146,181,145,147,145,163,177,145,146,162,146,180,180,147,162,161,178,180,178,146,164,146,148,179,180,177,178,165,180,147,178,149,165,162,180,162,153,194,194,194,194,194,194,194,194,194,195,195,194,194,194,
181,179,147,163,146,185,193,193,193,193,193,194,194,193,193,193,1610612932,194,194,194,193,1610612932,194,194,194,216,145,179,165,163,148,165,162,149,146,146,177,148,164,148,179,148,147,180,181,162,164,161,161,149,161,164,2,2,2,165,181,180,147,181,181,149,161,179,164,149,147,145,178,165,163,180,177,165,146,179,2,2,2,164,149,177,179,148,162,147,153,194,194,194,194,194,196,194,194,194,194,194,194,194,
179,145,185,183,185,193,193,194,2,2,2,193,193,194,1610612931,194,193,193,193,194,2,2,2,193,194,151,181,164,165,147,180,181,164,177,165,164,181,149,179,179,161,165,164,164,145,148,177,148,165,179,149,180,2,2,2,179,146,146,164,178,177,180,146,161,147,164,161,147,162,180,145,179,148,165,163,147,2,2,2,161,177,181,146,161,162,181,185,194,194,194,194,194,196,194,194,194,194,194,196,194,
164,177,153,203,193,194,1610612931,1610612932,2,2,2,193,193,194,194,193,194,194,193,193,2,2,2,194,193,183,165,162,163,163,180,161,149,179,162,179,156,157,158,161,165,165,165,145,146,162,149,164,148,161,179,162,2,2,2,164,179,145,164,161,181,148,148,146,162,149,165,149,181,177,162,147,161,181,163,180,2,2,2,162,147,178,147,179,162,145,153,194,194,194,194,195,195,196,195,194,194,194,194,194,
179,161,185,194,193,194,194,193,2,2,2,1610612931,194,194,193,194,193,193,1610612932,194,2,2,2,193,194,194,183,149,162,164,180,145,180,181,177,180,172,173,174,181,178,178,179,165,162,181,165,145,177,177,163,163,165,146,145,179,177,178,161,178,149,162,180,179,165,146,145,149,146,163,145,179,162,180,177,164,178,147,165,179,179,164,177,147,162,181,185,194,194,194,194,194,194,194,196,194,194,194,194,194,
165,145,215,193,194,194,194,193,193,194,194,194,1610612932,194,194,193,193,194,194,193,193,193,194,194,194,193,193,183,147,162,2,2,2,178,165,164,188,189,190,164,162,165,148,180,147,180,162,177,179,165,179,181,148,178,163,178,149,164,162,165,162,162,179,149,163,179,145,177,163,177,149,180,161,149,145,149,177,177,161,148,181,164,165,161,162,185,194,2,2,2,194,194,194,193,194,194,194,194,194,194,
178,161,185,194,194,194,1610612931,194,1610612931,193,193,193,193,194,193,1610612931,194,193,194,193,194,194,1610612932,194,193,194,194,216,177,145,2,2,2,179,177,145,164,179,181,181,145,161,179,164,162,179,165,180,164,148,180,181,181,149,165,145,180,165,149,180,163,177,147,165,145,148,148,163,148,161,148,178,165,180,146,165,147,164,165,161,149,178,181,161,185,194,194,2,2,2,194,194,194,193,194,194,194,194,194,194,
178,185,193,194,194,194,194,193,194,194,194,194,194,194,194,193,194,194,194,194,194,193,1610612931,1610612932,193,193,194,216,148,147,2,2,2,179,164,178,148,181,178,164,162,165,146,165,145,147,165,163,179,164,148,179,178,147,165,148,177,145,177,145,180,148,177,165,164,164,177,164,165,180,149,146,177,181,179,180,180,163,177,181,148,178,148,146,215,194,194,2,2,2,194,194,194,194,194,194,195,194,194,194,
146,215,193,194,193,1610612931,194,194,194,194,194,193,193,193,194,193,193,193,194,194,193,193,194,194,193,193,194,151,164,179,165,161,147,165,145,177,178,146,177,161,181,147,163,166,149,148,181,178,164,180,166,180,149,164,180,179,149,178,147,149,147,164,149,145,149,179,149,147,181,166,166,166,145,149,148,164,177,148,162,163,164,180,145,161,215,194,194,194,194,194,195,195,195,194,194,194,194,194,194,194,
164,215,194,193,194,194,194,1610612931,1610612932,194,193,194,193,193,193,193,194,193,194,194,193,193,194,194,193,193,194,183,145,179,166,166,163,147,179,177,161,165,161,149,161,179,146,181,181,178,166,148,177,147,178,164,181,179,181,180,181,161,178,145,178,180,161,147,165,149,145,177,164,161,146,163,147,146,147,178,146,163,145,161,149,180,149,146,153,194,194,194,194,194,194,194,194,194,194,194,194,194,194,194,
177,231,194,194,193,194,194,194,193,193,194,194,196,194,193,194,194,195,193,196,193,194,193,196,193,151,152,152,147,163,166,181,145,145,165,161,164,180,148,164,177,145,161,181,149,177,180,178,148,147,161,165,164,145,180,162,165,180,145,148,180,162,178,178,2,2,2,147,165,180,148,179,163,149,148,180,166,178,161,165,148,145,166,177,147,153,194,194,194,194,194,194,194,194,194,194,194,194,194,194,
162,153,151,153,151,153,194,194,1610612932,194,194,194,194,194,193,193,193,193,193,194,194,196,193,194,151,235,145,145,145,145,178,147,149,180,177,149,179,163,180,145,166,165,147,164,149,179,185,183,162,178,146,177,177,177,162,164,162,166,165,161,163,163,165,161,2,2,2,166,147,180,181,164,181,145,161,161,165,164,178,146,180,149,166,145,146,145,153,194,194,194,194,194,194,194,194,196,194,196,194,194,
177,177,177,162,149,185,193,194,194,193,194,194,194,195,194,193,196,193,195,193,194,193,218,151,235,161,145,145,147,165,149,149,165,178,166,179,177,162,165,165,166,181,148,149,145,185,194,194,183,163,149,177,177,162,166,181,180,178,181,161,166,181,181,161,2,2,2,146,161,164,148,149,166,177,166,166,164,178,149,145,166,181,181,180,163,162,161,153,193,193,194,194,196,194,194,194,194,194,194,194,
147,164,163,181,147,215,193,194,194,193,194,193,193,195,193,193,193,194,193,194,194,151,235,235,181,178,178,163,162,179,161,181,148,164,179,177,162,161,180,179,148,149,179,181,185,194,194,194,194,201,202,183,163,166,166,165,166,179,161,163,166,179,166,166,180,162,161,163,181,178,177,178,164,147,181,163,178,177,177,161,179,149,181,163,163,164,166,147,153,218,194,194,196,196,194,194,194,194,194,194,
147,145,164,165,179,215,193,193,194,194,193,194,195,194,194,193,194,194,193,218,151,235,164,180,162,181,166,179,164,178,178,166,180,146,181,180,164,164,181,162,147,148,163,147,153,194,194,194,2,2,2,151,179,166,166,177,178,166,161,177,162,179,166,179,161,165,165,164,180,164,148,148,178,179,149,165,165,148,148,180,164,165,179,165,180,165,181,145,162,169,194,194,194,194,194,194,194,194,194,194,
178,177,148,161,149,215,194,1610612931,194,193,194,193,194,194,196,194,193,193,151,235,161,145,178,178,147,165,179,162,179,164,181,163,166,180,147,177,164,179,147,149,179,162,149,166,215,194,194,196,2,2,2,167,161,166,166,166,179,166,166,178,178,161,163,185,202,202,202,202,183,164,164,145,147,161,145,164,177,148,148,181,149,180,147,165,162,149,162,185,202,202,194,194,194,194,194,194,194,194,194,194,
163,149,162,164,161,215,193,193,194,194,2,2,2,193,193,194,194,194,183,235,178,164,179,164,149,161,165,149,178,161,178,165,146,147,179,161,148,179,181,179,181,166,161,146,215,194,194,196,2,2,2,216,154,155,166,166,161,166,166,166,162,163,181,215,193,193,193,193,200,165,162,178,178,161,161,181,146,147,166,149,180,162,147,149,149,164,185,193,194,194,194,194,194,194,194,194,196,194,194,194,
165,147,149,161,148,153,194,193,1610612931,194,2,2,2,194,193,193,194,193,216,145,164,165,177,148,166,181,181,145,178,179,166,166,181,145,166,166,178,181,179,162,178,180,166,181,215,194,194,194,194,195,194,167,170,171,166,166,166,177,166,162,163,180,181,231,193,1610612931,194,193,216,180,165,166,177,181,147,147,162,145,180,164,177,146,181,181,163,185,193,196,194,193,194,194,194,194,194,194,194,194,194,194,
177,148,148,149,178,161,153,193,193,193,2,2,2,193,193,151,153,218,151,179,165,161,146,148,164,165,147,166,162,164,166,166,185,201,203,201,147,165,165,178,145,148,178,162,153,194,194,194,194,194,194,167,146,177,162,162,164,165,162,162,162,179,177,231,193,194,194,193,216,180,181,166,166,181,149,146,149,145,179,163,149,145,148,145,185,193,193,194,194,194,194,194,195,194,194,194,194,196,194,194,
147,179,180,180,177,164,185,194,1610612932,194,193,193,193,193,194,183,235,161,178,177,149,181,185,201,202,201,202,201,201,201,202,201,193,194,194,151,161,148,148,148,145,164,164,146,148,153,218,218,218,218,151,180,163,178,165,161,147,166,164,162,162,163,179,153,193,193,193,193,232,161,177,166,166,166,2,2,2,162,147,161,185,202,202,185,193,194,195,193,194,196,194,194,194,194,194,194,194,194,194,194,
162,161,163,145,179,149,199,194,193,194,193,193,194,151,153,151,146,163,147,162,162,149,199,194,194,194,193,193,194,193,193,193,194,194,194,183,162,179,165,162,161,148,181,163,177,162,147,178,177,145,147,147,146,161,145,148,161,178,2,2,2,162,166,177,153,217,193,193,151,164,161,166,166,166,2,2,2,162,179,146,215,193,194,194,194,194,195,195,194,194,194,194,194,194,195,194,194,194,194,194,
145,145,161,164,162,147,153,194,1610612931,194,193,194,151,235,146,164,163,149,177,179,164,179,215,194,193,194,194,194,193,194,194,2,2,2,194,194,194,166,177,178,163,146,149,165,180,149,162,179,179,179,165,147,146,166,177,166,179,178,2,2,2,166,164,162,179,181,153,151,166,166,180,166,166,166,2,2,2,166,202,185,193,194,193,193,194,193,193,193,194,193,194,194,194,194,194,194,194,194,194,194,
179,163,147,178,149,180,161,153,194,194,218,151,235,146,163,149,178,177,180,166,165,163,215,194,194,193,193,193,193,194,194,2,2,2,193,193,194,183,161,161,181,162,162,162,161,145,166,178,149,181,148,165,161,179,165,148,164,145,2,2,2,177,181,178,180,180,177,161,178,163,161,166,166,166,166,166,166,185,193,193,193,196,196,194,193,193,195,194,194,193,194,194,194,194,194,194,195,194,196,194,
146,181,162,147,163,178,146,181,153,151,235,235,147,163,181,149,165,162,148,164,165,177,215,193,194,193,193,194,194,193,194,2,2,2,193,193,194,200,145,161,177,162,162,162,161,154,155,179,178,148,177,147,181,180,164,163,161,147,161,149,146,180,164,161,165,179,165,165,180,180,179,166,166,166,166,166,185,193,193,195,196,193,194,194,2,2,2,194,195,195,194,194,194,196,194,194,194,194,195,196,
145,148,164,145,148,147,148,162,163,146,164,177,166,162,146,180,165,177,145,180,180,178,231,194,194,193,193,195,193,194,194,195,193,194,193,193,194,232,165,180,177,162,162,162,179,170,171,147,165,179,162,165,161,149,179,165,177,165,149,179,163,148,146,165,177,177,165,177,180,166,177,166,166,166,166,185,193,193,195,195,193,196,194,193,2,2,2,193,194,195,194,194,194,194,194,194,194,194,194,196,
179,178,161,165,149,164,147,148,163,146,149,161,178,147,180,180,181,164,163,179,165,163,153,194,194,193,194,194,193,193,193,195,196,194,195,193,194,151,165,162,177,146,147,166,146,181,166,145,165,161,179,161,165,179,162,180,178,165,147,146,148,145,146,164,181,149,177,164,177,166,163,165,166,166,166,199,193,194,193,193,196,193,195,193,2,2,2,194,194,193,194,194,194,194,194,194,194,194,194,194,
180,149,179,147,178,177,180,164,180,148,179,165,165,181,177,162,148,149,162,178,180,181,177,153,193,193,194,193,194,193,194,196,195,193,194,194,193,183,147,165,166,147,166,178,146,85,88,97,97,97,97,97,97,97,97,85,88,178,180,177,163,181,177,181,177,148,156,157,158,179,181,165,166,166,166,231,193,195,193,195,196,194,194,195,195,193,193,193,194,193,194,194,194,194,194,196,194,194,194,194,
164,163,180,149,148,181,148,149,147,163,145,149,146,178,179,166,148,164,178,163,166,179,145,185,193,193,193,194,194,194,193,194,194,193,194,194,194,194,183,163,164,165,165,180,146,133,136,17,17,17,17,17,17,17,17,133,136,161,162,177,181,145,163,145,166,179,172,173,174,177,177,161,166,166,166,231,193,193,194,194,194,195,194,194,194,193,194,193,193,193,194,194,196,194,194,194,194,194,194,194,
161,165,179,146,146,163,165,149,162,177,180,177,148,181,180,148,162,149,162,179,148,163,185,194,194,194,194,194,194,193,194,193,193,194,194,194,194,194,151,163,180,148,179,161,146,98,17,17,17,17,17,17,17,17,17,17,99,165,163,178,145,166,149,161,163,148,188,189,190,179,164,179,166,166,166,231,193,194,194,193,193,194,193,194,194,196,193,193,194,196,194,194,194,194,194,194,194,196,194,194,
178,161,149,162,178,145,180,149,165,178,178,181,180,162,145,148,145,148,148,165,147,185,194,194,193,193,193,193,193,194,194,194,193,193,194,194,194,194,183,165,178,181,181,177,146,98,17,17,17,17,17,17,17,17,17,17,99,178,161,179,145,145,164,145,169,151,151,180,165,165,181,161,177,166,166,199,193,194,193,194,194,193,194,193,193,195,194,196,193,193,194,194,194,194,194,194,195,195,194,194,
178,163,154,155,165,181,165,147,147,161,181,180,146,164,146,162,162,178,147,163,185,194,193,194,193,194,194,193,194,193,194,193,193,193,194,194,194,193,194,183,184,202,201,183,146,98,17,17,17,85,86,87,88,17,17,17,99,166,148,178,163,165,181,177,177,147,162,181,177,181,162,177,163,166,166,215,193,193,193,194,193,193,194,193,193,193,194,194,193,193,194,194,194,195,194,194,194,194,194,194,
180,145,170,171,162,177,147,149,177,162,149,177,163,147,166,149,179,149,165,180,199,194,194,194,193,193,194,194,194,194,193,193,194,195,193,193,194,194,194,193,194,194,193,193,183,98,17,17,17,101,102,103,104,17,17,17,99,179,179,148,166,177,164,178,180,180,177,163,177,161,181,180,164,166,166,199,193,193,193,193,193,193,196,195,194,195,194,193,194,196,194,194,194,194,194,194,194,194,194,194,
162,180,181,146,179,163,161,161,161,179,149,149,162,178,149,147,148,161,164,178,215,194,193,194,194,196,196,193,194,193,195,193,194,193,193,193,194,194,194,194,193,193,194,194,193,98,17,17,17,117,118,119,120,17,17,17,99,180,162,162,163,179,181,146,162,162,146,162,180,177,163,178,181,179,166,215,195,194,193,194,195,193,194,194,195,194,194,193,194,194,194,194,194,196,195,194,194,194,194,194,
181,178,179,146,180,179,180,180,178,146,165,161,178,164,161,162,181,163,165,161,215,193,193,194,193,194,195,194,194,193,196,193,193,193,193,193,194,193,196,194,194,194,193,193,194,98,17,17,17,133,134,135,136,17,17,17,99,149,163,163,148,178,180,163,162,162,179,178,162,178,163,161,181,235,166,215,194,193,193,193,194,194,195,193,195,194,196,193,193,193,194,194,194,196,194,194,194,194,194,194,
145,161,165,161,156,157,158,165,178,147,181,164,164,165,178,181,163,179,163,146,215,193,194,2,2,2,193,193,194,193,193,194,194,194,193,195,194,194,193,196,194,193,193,193,193,98,17,17,17,17,17,17,17,17,17,17,99,147,161,177,146,145,177,146,163,178,163,163,180,166,178,156,157,158,235,215,2,2,2,193,193,193,194,193,195,195,193,194,193,195,194,194,194,2,2,2,194,194,194,194,
163,163,177,154,155,173,174,161,2,2,2,164,147,181,164,148,146,181,180,162,153,193,193,2,2,2,194,194,194,194,193,194,194,193,193,194,194,193,194,194,193,193,193,194,194,98,17,17,17,17,17,17,17,17,17,17,99,148,166,149,161,166,162,165,177,180,181,164,178,166,164,172,173,174,185,194,2,2,2,194,194,193,194,194,193,193,195,193,193,194,194,194,194,2,2,2,194,194,194,194,
162,179,162,170,171,155,190,146,2,2,2,181,166,145,147,162,145,149,166,148,179,153,194,2,2,2,194,194,194,194,194,194,193,193,195,196,194,193,194,193,194,193,193,151,153,85,88,17,17,17,17,17,17,17,17,85,88,163,179,161,165,148,179,181,161,166,163,179,180,166,163,188,189,185,194,193,2,2,2,193,193,193,193,194,193,194,194,194,194,194,194,194,194,2,2,2,194,194,194,194,
161,164,163,147,170,171,181,177,2,2,2,146,164,148,177,161,163,162,148,165,181,149,153,219,217,218,219,193,194,194,193,194,194,194,196,193,194,193,193,194,194,194,151,177,146,133,136,113,113,113,113,113,113,113,113,133,136,163,163,177,166,149,166,149,166,146,161,146,177,166,185,203,203,193,194,193,193,193,193,194,193,194,193,194,194,194,194,193,193,193,194,194,194,194,194,194,194,194,194,194,
147,161,178,146,146,179,162,181,181,181,179,161,164,162,146,166,179,166,147,147,178,149,166,161,177,164,165,153,218,194,193,193,194,193,193,194,193,193,194,152,152,152,165,163,147,147,179,163,163,163,163,163,163,163,166,166,166,163,163,177,148,145,180,148,146,161,164,164,181,166,215,194,194,194,193,193,193,193,194,195,194,194,194,193,194,193,193,193,194,193,194,194,194,194,196,194,194,194,194,194,
162,146,179,163,147,147,146,161,181,149,181,145,181,148,165,146,177,166,146,177,145,180,163,166,163,179,178,161,165,153,218,218,218,218,218,218,218,218,151,164,164,146,179,149,178,161,162,165,165,166,165,165,141,163,163,163,163,163,177,165,180,149,148,164,145,162,181,164,164,166,215,194,194,2,2,2,194,194,194,194,194,193,196,194,193,193,193,194,193,194,194,194,194,194,195,194,194,194,194,194,
177,179,161,162,145,164,148,163,145,178,146,148,146,161,166,149,177,166,166,146,180,145,164,145,181,166,181,181,161,162,148,146,177,161,161,179,162,146,179,177,2,2,2,180,166,146,180,165,161,149,166,165,165,141,149,166,164,147,180,145,180,177,178,162,178,147,164,164,164,166,153,193,194,2,2,2,194,193,194,193,194,194,193,193,193,193,194,194,194,194,194,194,194,194,194,194,194,194,194,194,
179,148,177,181,147,164,149,162,149,163,148,179,178,162,162,178,145,161,161,145,148,161,154,155,145,149,145,165,146,181,181,163,180,164,163,149,145,154,155,166,2,2,2,147,179,163,146,146,163,179,165,178,165,165,141,161,146,166,179,180,181,2,2,2,166,145,185,202,183,184,185,193,194,2,2,2,195,194,194,193,194,194,195,194,193,195,194,194,193,194,196,194,194,194,194,194,194,194,194,194,
179,179,178,164,162,177,162,162,177,179,164,166,163,163,148,179,180,162,163,181,166,165,170,171,166,162,165,164,164,180,145,178,164,147,163,178,163,170,171,163,2,2,2,149,178,165,177,178,146,161,147,145,166,165,141,177,146,148,181,161,166,2,2,2,163,185,227,193,193,194,194,193,194,194,194,194,194,194,193,193,193,193,194,194,194,194,194,193,193,194,194,194,194,194,194,194,194,194,194,194,
147,163,145,178,146,147,161,164,164,147,162,180,164,164,166,165,162,164,177,165,149,179,145,145,164,161,145,149,161,161,180,145,178,146,177,162,146,162,164,162,177,163,164,164,166,161,166,165,165,165,165,165,165,146,162,162,162,161,166,166,166,2,2,2,185,193,193,193,194,193,193,194,193,194,194,194,193,194,193,196,194,194,196,194,194,196,194,193,194,193,194,196,194,194,194,194,194,194,194,194,
178,181,146,177,145,181,165,180,148,148,147,148,147,145,163,147,146,148,147,181,164,178,145,165,162,166,148,177,179,166,177,163,179,179,166,149,181,163,148,147,149,162,147,149,161,163,145,146,165,145,145,177,179,181,166,184,183,165,166,166,166,166,166,185,193,193,194,193,193,194,193,194,193,194,193,194,193,194,194,193,193,194,193,194,194,194,193,193,193,193,194,195,195,194,194,194,194,194,194,194,
145,179,147,161,163,180,161,147,147,163,180,166,179,179,161,163,146,149,163,148,180,164,163,163,162,149,181,181,166,180,149,145,179,164,177,161,162,145,164,166,179,145,161,166,181,181,166,179,162,164,165,177,163,179,185,227,200,166,166,166,166,166,185,194,193,193,194,194,194,194,193,196,194,193,194,195,194,193,237,194,193,194,193,194,194,194,194,194,194,194,194,194,196,194,194,194,194,194,194,194,
181,161,147,149,178,177,161,145,165,149,180,146,146,181,166,179,162,181,178,149,149,161,178,178,178,148,148,145,147,180,163,162,166,166,149,179,147,162,162,162,177,162,162,179,148,166,180,149,162,178,179,181,163,165,164,152,233,166,166,166,166,166,215,194,193,194,194,194,194,194,194,194,193,194,194,193,194,222,151,152,152,152,153,195,193,193,194,194,194,194,194,194,196,194,194,195,194,194,194,194,
148,145,145,165,163,148,147,147,178,163,149,148,148,161,162,161,181,162,181,178,145,180,165,178,178,166,148,178,149,146,166,149,164,165,166,179,161,166,163,166,163,165,165,161,165,163,164,161,146,147,148,179,181,161,163,177,166,166,166,166,166,166,215,193,193,193,194,194,194,194,194,193,194,194,193,194,194,151,145,156,157,158,169,194,193,194,193,193,193,194,194,194,194,194,194,194,194,194,194,194,
149,164,148,164,161,161,179,161,177,161,161,177,179,180,179,146,147,162,166,147,163,179,180,162,146,181,146,145,146,180,181,145,162,149,148,165,179,149,162,148,145,166,180,146,166,180,165,165,181,164,162,163,161,146,179,166,166,166,166,166,165,181,153,194,194,194,194,194,194,193,193,194,193,194,193,193,193,167,145,172,173,174,169,194,193,194,194,193,194,194,194,194,194,194,194,196,194,194,194,194,
165,147,163,163,165,147,178,162,178,179,163,161,164,177,147,146,180,147,163,166,165,181,147,149,185,201,183,145,161,181,147,164,181,178,164,149,166,145,177,148,148,161,179,178,161,166,149,146,147,165,178,164,162,166,163,166,166,184,185,202,202,183,185,193,193,194,194,194,196,193,194,194,194,193,193,193,194,183,145,188,189,190,169,193,193,193,194,196,195,194,194,194,194,194,194,196,196,194,194,194,
163,165,154,155,179,163,149,180,146,145,178,162,179,149,164,161,163,177,163,163,147,145,164,185,194,194,194,183,185,201,202,202,202,183,181,148,163,164,163,145,178,163,164,163,165,145,146,149,162,145,149,181,178,181,181,165,165,153,199,194,193,194,194,194,1610612932,193,193,194,194,194,193,194,193,195,194,193,193,193,183,184,184,184,185,193,194,193,194,194,193,194,194,194,194,194,194,194,194,194,194,194,
163,145,170,171,162,179,163,177,163,148,149,181,178,149,146,147,180,181,148,162,162,161,185,194,194,194,194,194,194,194,194,194,194,216,177,181,162,147,179,147,148,165,181,181,166,154,155,145,162,166,166,162,163,162,2,2,2,166,199,193,194,193,194,193,193,193,194,194,194,194,193,193,194,193,193,193,194,194,205,205,205,205,193,194,194,193,194,194,194,193,194,194,194,194,194,194,194,194,194,194,
181,163,165,164,148,179,181,179,162,162,178,147,146,165,166,177,2,2,2,162,166,149,215,194,194,194,195,194,194,194,196,194,194,216,164,177,180,164,179,147,166,162,147,147,148,170,171,145,165,180,149,181,145,148,2,2,2,178,153,152,153,193,194,193,194,193,193,193,195,194,194,194,194,194,195,196,193,194,194,194,2,2,2,193,194,193,193,193,193,194,194,194,195,194,194,194,194,194,194,194,
179,180,165,147,149,177,178,164,147,148,148,180,180,179,164,181,2,2,2,179,180,163,215,194,194,195,194,194,195,194,196,194,194,151,177,181,177,178,177,145,145,148,163,180,179,164,163,163,164,162,180,163,149,147,2,2,2,179,166,181,169,193,194,193,193,194,193,193,196,193,194,194,193,193,193,194,194,193,193,194,2,2,2,194,193,196,194,194,193,194,194,194,195,194,194,194,194,194,194,194,
161,178,177,177,147,162,145,165,161,149,162,179,149,164,178,177,2,2,2,166,181,145,215,194,194,194,194,194,194,194,194,194,151,166,161,166,149,161,164,164,178,146,147,162,148,164,161,162,163,146,147,163,162,163,146,145,163,148,178,184,185,193,193,1610612931,193,193,193,195,195,194,194,194,193,193,194,193,193,194,193,194,2,2,2,193,193,194,193,193,193,194,194,194,194,194,194,194,194,194,194,194,
181,177,179,162,181,164,181,178,165,162,177,180,148,145,181,179,165,163,163,161,163,149,215,194,194,194,194,194,194,194,194,151,163,166,178,145,164,164,148,148,147,181,148,181,181,149,166,181,178,179,164,181,148,145,177,165,179,162,185,194,193,194,194,194,193,194,194,193,194,194,194,193,193,193,193,194,193,194,193,193,196,194,194,193,194,194,194,194,193,195,194,194,194,194,196,194,194,194,194,194,
161,148,177,162,149,161,179,177,149,148,165,166,148,179,179,165,161,166,178,181,177,163,153,218,218,194,151,153,218,218,151,181,178,180,161,178,148,177,179,147,147,178,2,2,2,161,164,166,165,146,164,145,148,162,148,146,177,147,199,194,194,194,193,194,2,2,2,193,194,193,194,193,194,194,194,194,193,193,194,193,194,193,193,194,194,193,193,193,193,195,194,194,194,194,194,194,194,194,194,194,
145,164,178,148,181,178,180,146,181,165,149,178,162,162,180,166,162,162,147,147,179,177,179,148,181,152,149,179,161,161,177,178,177,179,180,147,165,177,148,149,161,164,2,2,2,148,180,162,177,147,164,178,162,148,163,166,147,146,199,193,193,194,194,194,2,2,2,193,193,193,194,194,196,193,193,193,194,193,193,193,194,193,194,194,193,193,193,194,193,195,194,194,194,194,194,194,194,194,194,194,
163,161,147,146,164,147,164,181,179,145,165,165,165,181,161,177,162,178,147,179,145,147,161,164,149,145,149,164,147,177,162,180,161,164,163,180,164,179,147,179,161,181,2,2,2,146,163,164,149,165,178,162,181,177,161,178,165,162,165,153,194,194,194,194,2,2,2,194,194,194,194,194,195,194,194,194,194,194,194,194,194,194,194,194,194,2,2,2,194,194,194,194,194,194,194,194,194,194,194,194,
164,161,181,165,178,2,2,2,164,162,179,164,161,148,147,148,179,179,178,162,146,181,161,162,181,165,179,148,177,165,161,181,148,146,148,179,148,161,163,179,163,177,177,181,178,164,146,161,180,146,161,149,177,149,147,147,149,145,145,146,147,151,153,194,194,194,194,194,194,194,194,194,196,196,194,194,194,194,196,194,194,194,194,194,194,2,2,2,194,194,194,194,194,194,195,194,194,194,194,194,
180,177,163,148,147,2,2,2,177,177,180,179,165,161,162,147,146,180,149,164,145,177,146,162,180,149,179,164,165,165,145,177,147,178,162,147,145,179,178,161,149,148,163,162,163,165,145,162,179,162,161,179,148,163,180,179,177,161,145,145,146,147,185,194,194,194,195,194,194,194,194,194,194,194,194,194,194,194,194,194,194,194,194,195,194,2,2,2,194,194,194,194,194,194,194,194,194,194,194,194,
145,180,181,164,162,2,2,2,148,145,163,146,148,147,145,147,177,149,146,145,181,147,177,149,177,180,163,164,149,148,162,178,161,149,163,180,148,178,163,179,180,149,146,161,179,165,178,180,154,155,179,163,147,164,162,177,147,177,145,146,147,163,194,194,194,194,194,194,194,194,194,194,194,194,194,194,194,194,194,194,194,194,194,194,194,194,194,194,194,194,194,194,194,194,194,194,194,194,194,194,
181,149,145,148,149,148,181,162,177,178,181,145,156,157,158,180,145,147,162,178,148,149,180,148,161,148,163,181,181,146,161,179,180,156,157,158,180,178,164,162,147,163,178,177,179,179,164,180,170,171,178,161,148,163,163,164,145,147,145,146,147,179,194,194,194,194,194,194,194,194,194,194,194,194,1610612932,194,194,194,194,194,194,194,194,194,194,194,194,194,196,194,194,194,194,194,194,194,194,194,194,194,
148,177,178,145,146,161,179,164,181,147,181,180,172,173,174,148,165,177,177,179,146,181,165,163,165,147,164,180,145,177,145,165,179,172,173,174,145,146,178,149,148,177,177,149,145,148,148,181,148,181,163,149,161,180,177,162,146,163,161,145,146,147,153,194,196,194,194,194,194,194,194,1610612932,194,194,194,194,194,194,194,194,194,196,194,194,194,194,194,194,194,194,194,194,194,194,194,194,196,194,194,194,
177,148,179,149,163,149,148,180,148,148,145,181,188,189,190,148,161,147,178,180,161,162,178,161,161,161,161,181,178,146,180,149,148,188,189,190,163,163,164,180,163,145,178,179,181,147,162,165,181,180,181,146,178,163,163,147,149,165,177,161,145,146,147,153,151,153,194,194,194,194,194,195,194,194,194,194,194,194,194,194,194,195,195,195,196,195,196,194,194,194,194,194,194,194,194,194,194,194,194,194,
147,161,180,148,161,180,165,164,163,165,163,149,179,165,180,181,163,179,165,146,165,148,145,178,165,165,165,163,147,147,178,146,163,165,178,148,179,165,161,146,149,147,164,164,164,162,180,178,162,147,161,179,148,147,178,162,146,178,149,145,161,149,163,145,146,147,153,194,194,194,194,194,194,196,194,194,195,194,194,194,194,194,194,194,194,194,194,194,194,194,194,194,194,194,194,194,194,194,194,194,
177,164,146,162,149,148,163,164,164,146,161,147,161,180,181,181,149,148,164,179,145,146,147,181,164,181,177,177,163,146,164,162,178,177,177,149,181,163,179,177,180,177,147,148,148,148,148,162,149,162,145,161,148,178,163,163,147,161,149,161,177,178,179,161,162,149,180,153,194,194,194,194,194,194,194,194,195,194,194,194,194,194,194,194,194,194,194,194,194,194,194,194,194,194,194,194,194,194,194,194,
179,163,164,164,147,178,162,178,146,165,163,145,145,148,177,165,177,161,178,164,148,179,162,161,164,163,162,178,148,162,164,165,177,164,162,145,148,181,177,181,180,165,165,181,147,149,149,148,165,181,177,177,162,178,180,148,163,179,178,177,178,149,178,177,178,179,180,180,153,194,194,194,194,194,194,194,194,194,194,194,194,194,194,194,194,194,194,194,194,194,194,194,194,194,194,194,194,194,194,194
</data>
 </layer>
 <layer id="4" name="Objets et Obstacles" width="100" height="70">
  <data encoding="csv">
0,0,0,0,0,0,0,0,0,0,0,0,0,0,0,0,0,0,0,0,0,0,0,0,0,0,0,0,0,0,0,0,0,0,0,0,0,0,0,0,0,0,0,0,0,0,0,0,0,0,0,0,0,0,0,0,0,0,0,0,0,0,0,0,0,0,0,0,0,0,0,0,0,0,0,0,0,0,0,0,0,0,0,0,0,0,0,0,0,0,0,0,0,0,0,0,0,0,0,0,
0,0,0,0,0,0,0,0,0,0,0,0,0,0,0,0,0,0,0,0,0,0,0,0,0,0,0,0,0,0,0,0,0,0,0,0,0,0,0,0,0,0,0,0,0,0,0,0,0,0,0,0,0,0,0,0,0,0,0,0,0,0,0,0,0,0,0,0,0,0,0,0,0,0,0,0,0,0,0,0,0,0,0,0,0,0,0,0,0,0,0,0,0,0,0,0,0,0,0,0,
0,0,0,0,0,0,0,0,0,0,0,0,0,0,0,0,0,0,0,0,0,0,0,0,0,0,0,0,0,0,0,0,0,0,0,0,0,0,0,0,0,0,0,0,0,0,0,0,0,0,0,0,0,0,0,0,0,0,0,0,0,0,0,0,0,0,0,0,0,0,0,0,0,0,0,0,0,0,0,0,0,0,0,0,0,0,0,0,0,0,0,0,0,0,0,0,0,0,0,0,
0,0,0,0,0,0,0,0,0,0,0,0,0,0,0,0,0,0,0,0,0,0,0,0,0,0,0,0,0,0,0,0,0,0,0,0,0,0,0,0,0,0,0,0,0,0,0,0,0,0,0,0,0,0,0,0,0,0,0,0,0,0,0,0,0,0,0,0,0,0,0,0,0,0,0,0,0,0,0,0,0,0,0,0,0,0,0,0,0,0,0,0,0,0,0,0,0,0,0,0,
0,0,0,0,0,0,0,0,0,0,0,0,0,0,0,0,0,0,0,0,0,0,0,0,0,0,0,0,0,0,0,0,0,0,0,0,0,0,0,0,0,0,0,0,0,0,0,0,0,0,0,0,0,0,0,0,0,0,0,0,0,0,0,0,0,0,0,0,0,0,0,0,0,0,0,0,0,0,0,0,0,0,0,0,0,0,0,0,0,0,0,0,0,0,0,0,0,0,0,0,
0,0,0,0,0,0,0,0,0,0,0,0,0,0,0,0,0,0,0,0,0,0,0,0,0,0,0,0,0,0,0,0,0,0,0,0,0,0,0,0,0,0,0,0,0,0,0,0,0,0,0,0,0,0,0,0,0,0,0,0,0,0,0,0,0,0,0,0,0,0,0,0,0,0,0,0,0,0,0,0,0,0,0,0,0,0,0,0,0,0,0,0,0,0,0,0,0,0,0,0,
0,0,0,0,0,0,0,0,0,0,0,0,0,0,0,0,0,0,0,0,0,0,0,0,0,0,0,0,0,0,0,0,0,0,0,0,0,0,0,0,0,0,0,0,0,0,0,0,0,0,0,0,0,0,0,0,0,0,0,0,0,0,0,0,0,0,0,0,0,0,0,0,0,0,0,0,0,0,0,0,0,0,0,0,0,0,0,0,0,0,0,0,0,0,0,0,0,0,0,0,
0,0,0,0,0,0,0,0,0,0,0,0,0,0,0,0,0,0,0,0,0,0,0,0,0,0,0,0,0,0,0,0,0,0,0,0,0,0,0,0,0,0,0,0,0,0,0,0,0,0,0,0,0,0,0,0,0,0,0,0,0,0,0,0,0,0,0,0,0,0,0,0,0,0,0,0,0,0,0,0,0,0,0,0,0,0,0,0,0,0,0,0,0,0,0,0,0,0,0,0,
0,0,0,0,0,0,0,0,0,0,0,0,0,0,0,0,0,0,0,0,0,0,0,0,0,0,0,0,0,0,0,0,0,0,0,0,0,0,0,0,0,0,0,0,0,0,0,0,0,0,0,0,0,0,0,0,0,0,0,0,0,0,0,0,0,0,0,0,0,0,0,0,0,0,0,0,0,0,0,0,0,0,0,0,0,0,0,0,0,0,0,0,0,0,0,0,0,0,0,0,
0,0,0,0,0,0,0,0,0,0,0,0,0,0,0,0,0,0,0,0,0,0,0,0,0,0,0,0,0,0,0,0,0,0,0,0,0,0,0,0,0,0,0,0,0,0,0,0,0,0,0,0,0,0,0,0,0,0,0,0,0,0,0,0,0,0,0,0,0,0,0,0,0,0,0,0,0,0,0,0,0,0,0,0,0,0,0,0,0,0,0,0,0,0,0,0,0,0,0,0,
0,0,0,0,0,0,0,0,0,0,0,0,0,0,0,0,0,0,0,0,0,0,0,0,0,0,0,0,0,0,0,0,0,0,0,0,0,0,0,0,0,0,0,0,0,0,0,0,0,0,0,0,0,0,0,0,0,0,0,0,0,0,0,0,0,0,0,0,0,0,0,0,0,0,0,0,0,0,0,0,0,0,0,0,0,0,0,0,0,0,0,0,0,0,0,0,0,0,0,0,
0,0,0,0,0,0,0,0,0,0,0,0,0,0,0,0,0,0,0,0,0,0,0,0,0,0,0,0,0,0,0,0,0,0,0,0,0,0,0,0,0,0,0,0,0,0,0,0,0,0,0,0,0,0,0,0,0,0,0,0,0,0,0,0,0,0,0,0,0,0,0,0,0,0,0,0,0,0,0,0,0,0,0,0,0,0,0,0,0,0,0,0,0,0,0,0,0,0,0,0,
0,0,0,0,0,0,0,0,0,0,0,0,0,0,0,0,0,0,0,0,0,0,0,0,0,0,0,0,0,0,0,0,0,0,0,0,0,0,0,0,0,0,0,0,0,0,0,0,0,0,0,0,0,0,0,0,0,0,0,0,0,0,0,0,0,0,0,0,0,0,0,0,0,0,0,0,0,0,0,0,0,0,0,0,0,0,0,0,0,0,0,0,0,0,0,0,0,0,0,0,
0,0,0,0,0,0,0,0,0,0,0,0,0,0,0,0,0,0,0,0,0,0,0,0,0,0,0,0,0,0,0,0,0,0,0,0,0,0,0,0,0,0,0,0,0,0,0,0,0,0,0,0,0,0,0,0,0,0,0,0,0,0,0,0,0,0,0,0,0,0,0,0,0,0,0,0,0,0,0,0,0,0,0,0,0,0,0,0,0,0,0,0,0,0,0,0,0,0,0,0,
0,0,0,0,0,0,0,0,0,0,0,0,0,0,0,0,0,0,0,0,0,0,0,0,0,0,0,0,0,0,0,0,0,0,0,0,0,0,0,0,0,0,0,0,0,0,0,0,0,0,0,0,0,0,0,0,0,0,0,0,0,0,0,0,0,0,0,0,0,0,0,0,0,0,0,0,0,0,0,0,0,0,0,0,0,0,0,0,0,0,0,0,0,0,0,0,0,0,0,0,
0,0,0,0,0,0,0,0,0,0,0,0,0,0,0,0,0,0,0,0,0,0,0,0,0,0,0,0,0,0,0,0,0,0,0,0,0,0,0,0,0,0,0,0,0,0,0,0,0,0,0,0,0,0,0,0,0,0,0,0,0,0,0,0,0,0,0,0,0,0,0,0,0,0,0,0,0,0,0,0,0,0,0,0,0,0,0,0,0,0,0,0,0,0,0,0,0,0,0,0,
0,0,0,0,0,0,0,0,0,0,0,0,0,0,0,0,0,0,0,0,0,0,0,0,0,0,0,0,0,0,0,0,0,0,0,0,0,0,0,0,0,0,0,0,0,0,0,0,0,0,0,0,0,0,0,0,0,0,0,0,0,0,0,0,0,0,0,0,0,0,0,0,0,0,0,0,0,0,0,0,0,0,0,0,0,0,0,0,0,0,0,0,0,0,0,0,0,0,0,0,
0,0,0,0,0,0,0,0,0,0,0,0,0,0,0,0,0,0,0,0,0,0,0,0,0,0,0,0,0,0,0,0,0,0,0,0,0,0,0,0,0,0,0,0,0,0,0,0,0,0,0,0,0,0,0,0,0,0,0,0,0,0,0,0,0,0,0,0,0,0,0,0,0,0,0,0,0,0,0,0,0,0,0,0,0,0,0,0,0,0,0,0,0,0,0,0,0,0,0,0,
0,0,0,0,0,0,0,0,0,0,0,0,0,0,0,0,0,0,0,0,0,0,0,0,0,0,0,0,0,0,0,0,0,0,0,0,0,0,0,0,0,0,0,0,0,0,0,0,0,0,0,0,0,0,0,0,0,0,0,0,0,0,0,0,0,0,0,0,0,0,0,0,0,0,0,0,0,0,0,0,0,0,0,0,0,0,0,0,0,0,0,0,0,0,0,0,0,0,0,0,
0,0,0,0,0,0,0,0,0,0,0,0,0,0,0,0,0,0,0,0,0,0,0,0,0,0,0,0,0,0,0,0,0,0,0,0,0,0,0,0,0,0,0,0,0,0,0,0,0,0,0,0,0,0,0,0,0,0,0,0,0,0,0,0,0,0,0,0,0,0,0,0,0,0,0,0,0,0,0,0,0,0,0,0,0,0,0,0,0,0,0,0,0,0,0,0,0,0,0,0,
0,0,0,0,0,0,0,0,0,0,0,0,0,0,0,0,0,0,0,0,0,0,0,0,0,0,0,0,0,0,0,0,0,0,0,0,0,0,0,0,0,0,0,0,0,0,0,0,0,0,0,0,0,0,0,0,0,0,0,0,0,0,0,0,0,0,0,0,0,0,0,0,0,0,0,0,0,0,0,0,0,0,0,0,0,0,0,0,0,0,0,0,0,0,0,0,0,0,0,0,
0,0,0,0,0,0,0,0,0,0,0,0,0,0,0,0,0,0,0,0,0,0,0,0,0,0,0,0,0,0,0,0,0,0,0,0,0,0,0,0,0,0,0,0,0,0,0,0,0,0,0,0,0,0,0,0,0,0,0,0,0,0,0,0,0,0,0,0,0,0,0,0,0,0,0,0,0,0,0,0,0,0,0,0,0,0,0,0,0,0,0,0,0,0,0,0,0,0,0,0,
0,0,0,0,0,0,0,0,0,0,0,0,0,0,0,0,0,0,0,0,0,0,0,0,0,0,0,0,0,0,0,0,0,0,0,0,0,0,0,0,0,0,0,0,0,0,0,0,0,0,0,0,0,0,0,0,0,0,0,0,0,0,0,0,0,0,0,0,0,0,0,0,0,0,0,0,0,0,0,0,0,0,0,0,0,0,0,0,0,0,0,0,0,0,0,0,0,0,0,0,
0,0,0,0,0,0,0,0,0,0,0,0,0,0,0,0,0,0,0,0,0,0,0,0,0,0,0,0,0,0,0,0,0,0,0,0,0,0,0,0,0,0,0,0,0,0,0,0,0,0,0,0,0,0,0,0,0,0,0,0,0,0,0,0,0,0,0,0,0,0,0,0,0,0,0,0,0,0,0,0,0,0,0,0,0,0,0,0,0,0,0,0,0,0,0,0,0,0,0,0,
0,0,0,0,0,0,0,0,0,0,0,0,0,0,0,0,0,0,0,0,0,0,0,0,0,0,0,0,0,0,0,0,0,0,0,0,0,0,0,0,0,0,0,0,0,0,0,0,0,0,0,0,0,0,0,0,0,0,0,0,0,0,0,0,0,0,0,0,0,0,0,0,0,0,0,0,0,0,0,0,0,0,0,0,0,0,0,0,0,0,0,0,0,0,0,0,0,0,0,0,
0,0,0,0,0,0,0,0,0,0,0,0,0,0,0,0,0,0,0,0,0,0,0,0,0,0,0,0,0,0,0,0,0,0,0,0,0,0,0,0,0,0,0,0,0,0,0,0,0,0,0,0,0,0,0,0,0,0,0,0,0,0,0,0,0,0,0,0,0,0,0,0,0,0,0,0,0,0,0,0,0,0,0,0,0,0,0,0,0,0,0,0,0,0,0,0,0,0,0,0,
0,0,0,0,0,0,0,0,0,0,0,0,0,0,0,0,0,0,0,0,0,0,0,0,0,0,0,0,0,0,0,0,0,0,0,0,0,0,0,0,0,0,0,0,0,549,550,0,0,0,0,0,0,0,0,549,550,0,0,0,0,0,0,0,0,0,0,0,0,0,0,0,0,0,0,0,0,0,0,0,0,0,0,0,0,0,0,0,0,0,0,0,0,0,0,0,0,0,0,0,
0,0,0,0,0,0,0,0,0,0,0,0,0,0,0,0,0,0,0,0,0,0,0,0,0,0,0,0,0,0,0,0,0,0,0,0,0,0,0,0,0,0,0,0,0,565,566,0,0,0,0,0,0,0,0,565,566,0,0,0,0,0,0,0,0,0,0,0,0,0,0,0,0,0,0,0,0,0,0,0,0,0,0,0,0,0,0,0,0,0,0,0,0,0,0,0,0,0,0,0,
0,0,0,0,0,0,0,0,0,0,0,0,0,0,0,0,0,0,0,0,0,0,0,0,0,0,0,0,0,0,0,0,0,0,0,0,0,0,0,0,0,0,0,0,0,581,582,0,0,0,0,0,0,0,0,581,582,0,0,0,583,584,0,0,0,0,0,0,0,0,0,0,0,0,0,0,0,0,0,0,0,0,0,0,0,0,0,0,0,0,0,0,0,0,0,0,0,0,0,0,
0,0,0,0,0,0,0,0,0,0,0,0,0,0,0,0,0,0,0,0,0,0,0,0,0,0,0,0,0,0,0,0,0,0,0,0,0,0,0,0,0,0,0,0,0,0,0,0,0,0,0,0,0,0,0,0,0,0,0,0,0,0,0,0,0,0,0,0,0,0,0,0,0,0,0,0,0,0,0,0,0,0,0,0,0,0,0,0,0,0,0,0,0,0,0,0,0,0,0,0,
0,0,0,0,0,0,0,0,0,0,0,0,0,0,0,0,0,0,0,0,0,0,0,0,0,0,0,0,0,0,0,0,0,0,0,0,0,0,0,0,0,0,0,0,0,0,0,0,0,0,0,0,0,0,0,0,0,0,0,0,0,0,0,0,0,0,0,0,0,0,0,0,0,0,0,0,0,0,0,0,0,0,0,0,0,0,0,0,0,0,0,0,0,0,0,0,0,0,0,0,
0,0,0,0,0,0,0,0,0,0,0,0,0,0,0,0,0,0,0,0,0,0,0,0,0,0,0,0,0,0,0,0,0,0,0,0,0,0,0,0,0,0,0,0,0,0,0,0,0,0,0,0,0,0,0,0,0,0,0,0,0,0,0,0,0,0,0,0,0,0,0,0,0,0,0,0,0,0,0,0,0,0,0,0,0,0,0,0,0,0,0,0,0,0,0,0,0,0,0,0,
0,0,0,0,0,0,0,0,0,0,0,0,0,0,0,0,0,0,0,0,0,0,0,0,0,0,0,0,0,0,0,0,0,0,0,0,0,0,0,0,0,0,0,0,0,0,0,0,0,0,0,0,0,0,0,0,0,0,0,0,0,0,0,0,0,0,0,0,0,0,0,0,0,0,0,0,0,0,0,0,0,0,0,0,0,0,0,0,0,0,0,0,0,0,0,0,0,0,0,0,
0,0,0,0,0,0,0,0,0,0,0,0,0,0,0,0,0,0,0,0,0,0,0,0,0,0,0,0,0,0,0,0,0,0,0,0,0,0,0,0,0,0,0,0,0,0,0,0,0,0,0,0,0,0,0,0,0,0,0,0,583,584,0,0,0,0,0,0,0,0,0,0,0,0,0,0,0,0,0,0,0,0,0,0,0,0,0,0,0,0,0,0,0,0,0,0,0,0,0,0,
0,0,0,0,0,0,0,0,0,0,0,0,0,0,0,0,0,0,0,0,0,0,0,0,0,0,0,0,0,0,0,0,0,0,0,0,0,0,0,0,0,0,0,0,0,0,0,0,0,0,0,0,0,0,0,0,0,0,0,0,0,0,0,0,0,0,0,0,0,0,0,0,0,0,0,0,0,0,0,0,0,0,0,0,0,0,0,0,0,0,0,0,0,0,0,0,0,0,0,0,
0,0,0,0,0,0,0,0,0,0,0,0,0,0,0,0,0,0,0,0,0,0,0,0,0,0,0,0,0,0,0,0,0,0,0,0,0,0,0,0,0,0,0,0,0,0,0,0,0,0,0,0,0,0,0,0,0,0,0,0,0,0,0,0,0,0,0,0,0,0,0,0,0,0,0,0,0,0,0,0,0,0,0,0,0,0,0,0,0,0,0,0,0,0,0,0,0,0,0,0,
0,0,0,0,0,0,0,0,0,0,0,0,0,0,0,0,0,0,0,0,0,0,0,0,0,0,0,0,0,0,0,0,0,0,0,0,0,0,0,0,0,0,0,0,0,549,550,0,0,0,0,0,0,0,0,549,550,0,0,0,0,0,0,0,0,0,0,0,0,0,0,0,0,0,0,0,0,0,0,0,0,0,0,0,0,0,0,0,0,0,0,0,0,0,0,0,0,0,0,0,
0,0,0,0,0,0,0,0,0,0,0,0,0,0,0,0,0,0,0,0,0,0,0,0,0,0,0,0,0,0,0,0,0,0,0,0,0,0,0,0,0,0,0,0,0,565,566,0,0,0,0,0,0,0,0,565,566,0,0,0,0,0,0,0,0,0,0,0,0,0,0,0,0,0,0,0,0,0,0,0,0,0,0,0,0,0,0,0,0,0,0,0,0,0,0,0,0,0,0,0,
0,0,0,0,0,0,0,0,0,0,0,0,0,0,0,0,0,0,0,0,0,0,0,0,0,0,0,0,0,0,0,0,0,0,0,0,0,0,0,0,0,0,0,0,0,581,582,0,0,0,0,0,0,0,0,581,582,0,0,0,0,0,0,0,0,0,0,0,0,0,0,0,0,0,0,0,0,0,0,0,0,0,0,0,0,0,0,0,0,0,0,0,0,0,0,0,0,0,0,0,
0,0,0,0,0,0,0,0,0,0,0,0,0,0,0,0,0,0,0,0,0,0,0,0,0,0,0,0,0,0,0,0,0,0,0,0,0,0,0,0,0,0,0,0,0,0,0,0,0,0,0,0,0,0,0,0,0,0,0,0,0,0,0,0,0,0,0,0,0,0,0,0,0,0,0,0,0,0,0,0,0,0,0,0,0,0,0,0,0,0,0,0,0,0,0,0,0,0,0,0,
0,0,0,0,0,0,0,0,0,0,0,0,0,0,0,0,0,0,0,0,0,0,0,0,0,0,0,0,0,0,0,0,0,0,0,0,0,0,0,0,0,0,0,0,0,0,0,0,0,0,0,0,0,0,0,0,0,0,0,0,0,0,0,0,0,0,0,0,0,0,0,0,0,0,0,0,0,0,0,0,0,0,0,0,0,0,0,0,0,0,0,0,0,0,0,0,0,0,0,0,
0,0,0,0,0,0,0,0,0,0,0,0,0,0,0,0,0,0,0,0,0,0,0,0,0,0,0,0,0,0,0,0,0,0,0,0,0,0,0,0,0,0,0,0,0,0,0,0,0,0,0,0,0,0,0,0,0,0,0,0,0,0,0,0,0,0,0,0,0,0,0,0,0,0,0,0,0,0,0,0,0,0,0,0,0,0,0,0,0,0,0,0,0,0,0,0,0,0,0,0,
0,0,0,0,0,0,0,0,0,0,0,0,0,0,0,0,0,0,0,0,0,0,0,0,0,0,0,0,0,0,0,0,0,0,0,0,0,0,0,0,0,0,0,0,0,0,0,0,0,0,0,0,0,0,0,0,0,0,0,0,0,0,0,0,0,0,0,0,0,0,0,0,0,0,0,0,0,0,0,0,0,0,0,0,0,0,0,0,0,0,0,0,0,0,0,0,0,0,0,0,
0,0,0,0,0,0,0,0,0,0,0,0,0,0,0,0,0,0,0,0,0,0,0,0,0,0,0,0,0,0,0,0,0,0,0,0,0,0,0,0,0,0,0,0,0,0,0,0,0,0,0,0,0,0,0,0,0,0,0,0,0,0,0,0,0,0,0,0,0,0,0,0,0,0,0,0,0,0,0,0,0,0,0,0,0,0,0,0,0,0,0,0,0,0,0,0,0,0,0,0,
0,0,0,0,0,0,0,0,0,0,0,0,0,0,0,0,0,0,0,0,0,0,0,0,0,0,0,0,0,0,0,0,0,0,0,0,0,0,0,0,0,0,0,0,0,0,0,0,0,0,0,0,0,0,0,0,0,0,0,0,0,0,0,0,0,0,0,0,0,0,0,0,0,0,0,0,0,0,0,0,0,0,0,0,0,0,0,0,0,0,0,0,0,0,0,0,0,0,0,0,
0,0,0,0,0,0,0,0,0,0,0,0,0,0,0,0,0,0,0,0,0,0,0,0,0,0,0,0,0,0,0,0,0,0,0,0,0,0,0,0,0,0,0,0,0,0,0,0,0,0,0,0,0,0,0,0,0,0,0,0,0,0,0,0,0,0,0,0,0,0,0,0,0,0,0,0,0,0,0,0,0,0,0,0,0,0,0,0,0,0,0,0,0,0,0,0,0,0,0,0,
0,0,0,0,0,0,0,0,0,0,0,0,0,0,0,0,0,0,0,0,0,0,0,0,0,0,0,0,0,0,0,0,0,0,0,0,0,0,0,0,0,0,0,0,0,0,0,0,0,0,0,0,0,0,0,0,0,0,0,0,0,0,0,0,0,0,0,0,0,0,0,0,0,0,0,0,0,0,0,0,0,0,0,0,0,0,0,0,0,0,0,0,0,0,0,0,0,0,0,0,
0,0,0,0,0,0,0,0,0,0,0,0,0,0,0,0,0,0,0,0,0,0,0,0,0,0,0,0,0,0,0,0,0,0,0,0,0,0,0,0,0,0,0,0,0,0,0,0,0,0,0,0,0,0,0,0,0,0,0,0,0,0,0,0,0,0,0,0,0,0,0,0,0,0,0,0,0,0,0,0,0,0,0,0,0,0,0,0,0,0,0,0,0,0,0,0,0,0,0,0,
0,0,0,0,0,0,0,0,0,0,0,0,0,0,0,0,0,0,0,0,0,0,0,0,0,0,0,0,0,0,0,0,0,0,0,0,0,0,0,0,0,0,0,0,0,0,0,0,0,0,0,0,0,0,0,0,0,0,0,0,0,0,0,0,0,0,0,0,0,0,0,0,0,0,0,0,0,0,0,0,0,0,0,0,0,0,0,0,0,0,0,0,0,0,0,0,0,0,0,0,
0,0,0,0,0,0,0,0,0,0,0,0,0,0,0,0,0,0,0,0,0,0,0,0,0,0,0,0,0,0,0,0,0,0,0,0,0,0,0,0,0,0,0,0,0,0,0,0,0,0,0,0,0,0,0,0,0,0,0,0,0,0,0,0,0,0,0,0,0,0,0,0,0,0,0,0,0,0,0,0,0,0,0,0,0,0,0,0,0,0,0,0,0,0,0,0,0,0,0,0,
0,0,0,0,0,0,0,0,0,0,0,0,0,0,0,0,0,0,0,0,0,0,0,0,0,0,0,0,0,0,0,0,0,0,0,0,0,0,0,0,0,0,0,0,0,0,0,0,0,0,0,0,0,0,0,0,0,0,0,0,0,0,0,0,0,0,0,0,0,0,0,0,0,0,0,0,0,0,0,0,0,0,0,0,0,0,0,0,0,0,0,0,0,0,0,0,0,0,0,0,
0,0,0,0,0,0,0,0,0,0,0,0,0,0,0,0,0,0,0,0,0,0,0,0,0,0,0,0,0,0,0,0,0,0,0,0,0,0,0,0,0,0,0,0,0,0,0,0,0,0,0,0,0,0,0,0,0,0,0,0,0,0,0,0,0,0,0,0,0,0,0,0,0,0,0,0,0,0,0,0,0,0,0,0,0,0,0,0,0,0,0,0,0,0,0,0,0,0,0,0,
0,0,0,0,0,0,0,0,0,0,0,0,0,0,0,0,0,0,0,0,0,0,0,0,0,0,0,0,0,0,0,0,0,0,0,0,0,0,0,0,0,0,0,0,0,0,0,0,0,0,0,0,0,0,0,0,0,0,0,0,0,0,0,0,0,0,0,0,0,0,0,0,0,0,0,0,0,0,0,0,0,0,0,0,0,0,0,0,0,0,0,0,0,0,0,0,0,0,0,0,
0,0,0,0,0,0,0,0,0,0,0,0,0,0,0,0,0,0,0,0,0,0,0,0,0,0,0,0,0,0,0,0,0,0,0,0,0,0,0,0,0,0,0,0,0,0,0,0,0,0,0,0,0,0,0,0,0,0,0,0,0,0,0,0,0,0,0,0,0,0,0,0,0,0,0,0,0,0,0,0,0,0,0,0,0,0,0,0,0,0,0,0,0,0,0,0,0,0,0,0,
0,0,0,0,0,0,0,0,0,0,0,0,0,0,0,0,0,0,0,0,0,0,0,0,0,0,0,0,0,0,0,0,0,0,0,0,0,0,0,0,0,0,0,0,0,0,0,0,0,0,0,0,0,0,0,0,0,0,0,0,0,0,0,0,0,0,0,0,0,0,0,0,0,0,0,0,0,0,0,0,0,0,0,0,0,0,0,0,0,0,0,0,0,0,0,0,0,0,0,0,
0,0,0,0,0,0,0,0,0,0,0,0,0,0,0,0,0,0,0,0,0,0,0,0,0,0,0,0,0,0,0,0,0,0,0,0,0,0,0,0,0,0,0,0,0,0,0,0,0,0,0,0,0,0,0,0,0,0,0,0,0,0,0,0,0,0,0,0,0,0,0,0,0,0,0,0,0,0,0,0,0,0,0,0,0,0,0,0,0,0,0,0,0,0,0,0,0,0,0,0,
0,0,0,0,0,0,0,0,0,0,0,0,0,0,0,0,0,0,0,0,0,0,0,0,0,0,0,0,0,0,0,0,0,0,0,0,0,0,0,0,0,0,0,0,0,0,0,0,0,0,0,0,0,0,0,0,0,0,0,0,0,0,0,0,0,0,0,0,0,0,0,0,0,0,0,0,0,0,0,0,0,0,0,0,0,0,0,0,0,0,0,0,0,0,0,0,0,0,0,0,
0,0,0,0,0,0,0,0,0,0,0,0,0,0,0,0,0,0,0,0,0,0,0,0,0,0,0,0,0,0,0,0,0,0,0,0,0,0,0,0,0,0,0,0,0,0,0,0,0,0,0,0,0,0,0,0,0,0,0,0,0,0,0,0,0,0,0,0,0,0,0,0,0,0,0,0,0,0,0,0,0,0,0,0,0,0,0,0,0,0,0,0,0,0,0,0,0,0,0,0,
0,0,0,0,0,0,0,0,0,0,0,0,0,0,0,0,0,0,0,0,0,0,0,0,0,0,0,0,0,0,0,0,0,0,0,0,0,0,0,0,0,0,0,0,0,0,0,0,0,0,0,0,0,0,0,0,0,0,0,0,0,0,0,0,0,0,0,0,0,0,0,0,0,0,0,0,0,0,0,0,0,0,0,0,0,0,0,0,0,0,0,0,0,0,0,0,0,0,0,0,
0,0,0,0,0,0,0,0,0,0,0,0,0,0,0,0,0,0,0,0,0,0,0,0,0,0,0,0,0,0,0,0,0,0,0,0,0,0,0,0,0,0,0,0,0,0,0,0,0,0,0,0,0,0,0,0,0,0,0,0,0,0,0,0,0,0,0,0,0,0,0,0,0,0,0,0,0,0,0,0,0,0,0,0,0,0,0,0,0,0,0,0,0,0,0,0,0,0,0,0,
0,0,0,0,0,0,0,0,0,0,0,0,0,0,0,0,0,0,0,0,0,0,0,0,0,0,0,0,0,0,0,0,0,0,0,0,0,0,0,0,0,0,0,0,0,0,0,0,0,0,0,0,0,0,0,0,0,0,0,0,0,0,0,0,0,0,0,0,0,0,0,0,0,0,0,0,0,0,0,0,0,0,0,0,0,0,0,0,0,0,0,0,0,0,0,0,0,0,0,0,
0,0,0,0,0,0,0,0,0,0,0,0,0,0,0,0,0,0,0,0,0,0,0,0,0,0,0,0,0,0,0,0,0,0,0,0,0,0,0,0,0,0,0,0,0,0,0,0,0,0,0,0,0,0,0,0,0,0,0,0,0,0,0,0,0,0,0,0,0,0,0,0,0,0,0,0,0,0,0,0,0,0,0,0,0,0,0,0,0,0,0,0,0,0,0,0,0,0,0,0,
0,0,0,0,0,0,0,0,0,0,0,0,0,0,0,0,0,0,0,0,0,0,0,0,0,0,0,0,0,0,0,0,0,0,0,0,0,0,0,0,0,0,0,0,0,0,0,0,0,0,0,0,0,0,0,0,0,0,0,0,0,0,0,0,0,0,0,0,0,0,0,0,0,0,0,0,0,0,0,0,0,0,0,0,0,0,0,0,0,0,0,0,0,0,0,0,0,0,0,0,
0,0,0,0,0,0,0,0,0,0,0,0,0,0,0,0,0,0,0,0,0,0,0,0,0,0,0,0,0,0,0,0,0,0,0,0,0,0,0,0,0,0,0,0,0,0,0,0,0,0,0,0,0,0,0,0,0,0,0,0,0,0,0,0,0,0,0,0,0,0,0,0,0,0,0,0,0,0,0,0,0,0,0,0,0,0,0,0,0,0,0,0,0,0,0,0,0,0,0,0,
0,0,0,0,0,0,0,0,0,0,0,0,0,0,0,0,0,0,0,0,0,0,0,0,0,0,0,0,0,0,0,0,0,0,0,0,0,0,0,0,0,0,0,0,0,0,0,0,0,0,0,0,0,0,0,0,0,0,0,0,0,0,0,0,0,0,0,0,0,0,0,0,0,0,0,0,0,0,0,0,0,0,0,0,0,0,0,0,0,0,0,0,0,0,0,0,0,0,0,0,
0,0,0,0,0,0,0,0,0,0,0,0,0,0,0,0,0,0,0,0,0,0,0,0,0,0,0,0,0,0,0,0,0,0,0,0,0,0,0,0,0,0,0,0,0,0,0,0,0,0,0,0,0,0,0,0,0,0,0,0,0,0,0,0,0,0,0,0,0,0,0,0,0,0,0,0,0,0,0,0,0,0,0,0,0,0,0,0,0,0,0,0,0,0,0,0,0,0,0,0,
0,0,0,0,0,0,0,0,0,0,0,0,0,0,0,0,0,0,0,0,0,0,0,0,0,0,0,0,0,0,0,0,0,0,0,0,0,0,0,0,0,0,0,0,0,0,0,0,0,0,0,0,0,0,0,0,0,0,0,0,0,0,0,0,0,0,0,0,0,0,0,0,0,0,0,0,0,0,0,0,0,0,0,0,0,0,0,0,0,0,0,0,0,0,0,0,0,0,0,0,
0,0,0,0,0,0,0,0,0,0,0,0,0,0,0,0,0,0,0,0,0,0,0,0,0,0,0,0,0,0,0,0,0,0,0,0,0,0,0,0,0,0,0,0,0,0,0,0,0,0,0,0,0,0,0,0,0,0,0,0,0,0,0,0,0,0,0,0,0,0,0,0,0,0,0,0,0,0,0,0,0,0,0,0,0,0,0,0,0,0,0,0,0,0,0,0,0,0,0,0,
0,0,0,0,0,0,0,0,0,0,0,0,0,0,0,0,0,0,0,0,0,0,0,0,0,0,0,0,0,0,0,0,0,0,0,0,0,0,0,0,0,0,0,0,0,0,0,0,0,0,0,0,0,0,0,0,0,0,0,0,0,0,0,0,0,0,0,0,0,0,0,0,0,0,0,0,0,0,0,0,0,0,0,0,0,0,0,0,0,0,0,0,0,0,0,0,0,0,0,0,
0,0,0,0,0,0,0,0,0,0,0,0,0,0,0,0,0,0,0,0,0,0,0,0,0,0,0,0,0,0,0,0,0,0,0,0,0,0,0,0,0,0,0,0,0,0,0,0,0,0,0,0,0,0,0,0,0,0,0,0,0,0,0,0,0,0,0,0,0,0,0,0,0,0,0,0,0,0,0,0,0,0,0,0,0,0,0,0,0,0,0,0,0,0,0,0,0,0,0,0
</data>
 </layer>
 <objectgroup id="2" name="BuildSlots">
  <object id="1" name="slot1" type="built_slot" x="496" y="368" width="47.875" height="48"/>
  <object id="2" name="slot2" type="built_slot" x="160.091" y="288.091" width="47.6364" height="48.1818"/>
  <object id="3" name="slot3" type="built_slot" x="367.909" y="576.121" width="47.7273" height="47.9091"/>
  <object id="4" name="slot6" type="built_slot" x="1216.25" y="576" width="47.5" height="47.875"/>
  <object id="5" name="slot5" type="built_slot" x="928.25" y="352.063" width="47.75" height="47.625"/>
  <object id="6" name="slot7" type="built_slot" x="1184.18" y="336.212" width="47.25" height="47.375"/>
  <object id="7" name="slot4" type="built_slot" x="768" y="256.182" width="48" height="47.8182"/>
  <object id="14" name="slot8" type="built_slot" x="256" y="864" width="48" height="48"/>
  <object id="16" name="slot9" type="built_slot" x="640" y="672" width="48" height="48"/>
  <object id="17" name="slot10" type="built_slot" x="976" y="688" width="48" height="48"/>
  <object id="18" x="1185.33" y="545.333" width="2.66667"/>
  <object id="19" name="slot20" type="built_slot" x="127.563" y="591.667" width="47.875" height="48"/>
  <object id="20" name="slot22" type="built_slot" x="80.0625" y="975.939" width="47.875" height="48"/>
  <object id="21" name="slot23" type="built_slot" x="672.002" y="927.939" width="47.875" height="48"/>
  <object id="22" name="slot24" type="built_slot" x="863.563" y="848.5" width="47.875" height="48"/>
  <object id="23" name="slot25" type="built_slot" x="1023.88" y="928.182" width="47.875" height="48"/>
  <object id="24" name="slot21" type="built_slot" x="1168.06" y="655.75" width="47.875" height="48"/>
  <object id="25" name="slot26" type="built_slot" x="1279.81" y="864" width="47.875" height="48"/>
  <object id="26" name="slot27" type="built_slot" x="1359.56" y="960.5" width="47.875" height="48"/>
  <object id="27" name="slot19" type="built_slot" x="1483.94" y="574.125" width="47.875" height="48"/>
  <object id="28" name="slot18" type="built_slot" x="1343.81" y="400" width="47.875" height="48"/>
  <object id="29" name="slot16" type="built_slot" x="1391.76" y="112" width="47.875" height="48"/>
  <object id="30" name="slot15" type="built_slot" x="1216.06" y="47.75" width="47.875" height="48"/>
  <object id="31" name="slot17" type="built_slot" x="1024.06" y="192.25" width="47.875" height="48"/>
  <object id="32" name="slot14" type="built_slot" x="832.396" y="48.6667" width="47.875" height="48"/>
  <object id="33" name="slot13" type="built_slot" x="480.244" y="111.818" width="47.875" height="48"/>
  <object id="34" name="slot12" type="built_slot" x="320.021" y="63.9583" width="47.875" height="48"/>
  <object id="35" name="slot11" type="built_slot" x="127.938" y="63.875" width="47.875" height="48"/>
 </objectgroup>
 <objectgroup id="3" name="VaisseauSlot">
  <object id="11" name="vaisseau" type="vaisseau_slot" x="784" y="512" width="64" height="64"/>
 </objectgroup>
</map>
